!!!COM: Beethoven, Ludwig van
!!!CDT: 1770///-1827///
!!!OTL: Piano Sonata no. 32 in C minor
!!!ODT: 1821///-1822///
!!!ODT: 1821///-1822///
!!!ODE: Ersterzog Rudolph von &Ouml;sterreich
!!!OPS: 111
!!!OMV: 2
!!!OMD: Arietta: Adagio molto, semplice e cantabile
**kern	**kern	**dynam
*staff2	*staff1	*staff1/2
*>[A,A1,A,A2,B,B1,B,B2,C,C1,C,C2,D,D1,D,D2,E,E1,E,E2,F,F1,F,F2,G,G1,G,G2,H,H1,H,H2,I]	*>[A,A1,A,A2,B,B1,B,B2,C,C1,C,C2,D,D1,D,D2,E,E1,E,E2,F,F1,F,F2,G,G1,G,G2,H,H1,H,H2,I]	*>[A,A1,A,A2,B,B1,B,B2,C,C1,C,C2,D,D1,D,D2,E,E1,E,E2,F,F1,F,F2,G,G1,G,G2,H,H1,H,H2,I]
*>norep[A,A2,B,B2,C,C2,D,D2,E,E2,F,F2,G,G2,H,H2,I]	*>norep[A,A2,B,B2,C,C2,D,D2,E,E2,F,F2,G,G2,H,H2,I]	*>norep[A,A2,B,B2,C,C2,D,D2,E,E2,F,F2,G,G2,H,H2,I]
*>A	*>A	*>A
*clefF4	*clefG2	*clefG2
*k[]	*k[]	*k[]
*C:	*C:	*C:
*M9/16	*M9/16	*M9/16
*MM40	*MM40	*MM40
*	*^	*
8.CC/ 8.GG/	8cc/L	8.e\	p
.	16g/Jk	.	.
=1	=1	=1	=1
8.CC/ 8.GG/L	4.g/	(8.e\L	.
8.DD/ 8.GG/	.	8.f\	.
8.BBB/ 8.GG/J	8dd/L	8.d\J)	.
.	&(16g/Jk&)	.	.
=2	=2	=2	=2
8.BBB/ 8.GG/L	4.g/	(8.d\L	.
8.CC/ 8.GG/	.	8.e\	.
8.DD/ 8.GG/J	8.g/	8.f\J)	.
=3	=3	=3	=3
8.EE/ 8.GG/L	8.g/L	(8.g\L	.
8.CC/ 8.GG/	8.ee/	8.e\	.
8.EE/ 8.GG/J	8.cc/J)	8.g\J	.
=4	=4	=4	=4
*^	*	*	*
(8.GGG/L	4.GGG\	8.cc/L	8.e\L	.
8.GG/J)	.	8.b/	8.d\	.
(8GGG/ 8GG/L	8.r	8.g/ 8.b/J	8.d\J	.
16FFF/) 16FF/Jk	.	.	.	.
*v	*v	*	*	*
=5	=5	=5	=5
4.EEE/ 4.EE/	(8.cc/L	4.g\	<
.	8.ee/	.	.
8.EEE/ 8.EE/	8.gg/J)	8.g\	.
=6	=6	=6	=6
4.DDD/ 4.DD/	(8.gg/L	4.a\	>
.	8.ff/J	.	.
(8FFF/ 8FF/L	8dd/L	8a\L	.
16FFF#/) 16FF#/Jk	16a/ 16cc/Jk)	16d\Jk	.
=7	=7	=7	=7
*^	*	*	*
(8.GG/L	4.GGG\	8.g/ 8.b/L	8.d\L	.
8.AA/J	.	8.g/ 8.cc/J	8.c\J	.
8BB/L)	8.r	8g/ 8dd/L	8d\L	.
[16BB/Jk	.	16g/Jk	[16d\Jk	.
*v	*v	*	*	*
*	*v	*v	*
=8	=8	=8
*>A1	*>A1	*>A1
*	*^	*
8BB/L]	4.g/	8d\L]	.
16BB/k	.	(16d\k	.
8C/	.	8c\ 8e\	.
&(16D/Jk&)	.	(16B\ 16f\Jk)	.
*	*v	*v	*
=9:|!	=9:|!	=9:|!
*>A2	*>A2	*>A2
*	*^	*
&(8BB/L&)	4.g/	8d\L)	.
(16C/k	.	16c\ (16e\k	.
8D/	.	8B\ 8f\	.
16C/Jk)	.	16c\ 16e\Jk)	.
8.E/	8.e/	8.r	.
*	*v	*v	*
=10!|:	=10!|:	=10!|:
*>B	*>B	*>B
*	*^	*
*^	*	*	*
8.AA/L	4.AA\	4.cc/	4.e\	.
8.E/	.	.	.	.
8.E/J	8.AA\	8cc/L	8.e\	.
.	.	16b/Jk	.	.
=11	=11	=11	=11	=11
8.GG#/L	4.GG#\	4.b/	4.e\	.
8.E/	.	.	.	.
8.E/J	8.GG#\	(8b/L	8.r	.
.	.	16ee/Jk)	.	.
*v	*v	*	*	*
*	*v	*v	*
=12	=12	=12
8.GG#/ 8.E/L	8.b\ 8.ee\L	.
8.AA/ 8.E/	8.cc\ (8.ee\J	.
8.AA/ 8.E/J	8b\ 8dd\L	.
.	16a\ 16cc\Jk)	.
=13	=13	=13
*^	*	*
(8.EE/L	4.EE\	(8.a/ 8.cc/L	.
8.E/)	.	8.g#/ 8.b/	.
8.AAA/ 8.AA/J	8.r	8.e/) 8.a/ 8.cc/J	.
*v	*v	*	*
=14	=14	=14
4.GGG/ 4.GG/	4.gn\ 4.b\ 4.dd\	<
8.GGG/ 8.GG/	8.g\ 8.b\ 8.dd\	.
=15	=15	=15
4.CC/ 4.C/	4.g\ 4.cc\ 4.ee\	.
8.FFF/ 8.FF/	8.a\ 8.cc\ 8.ff\	.
=16	=16	=16
8.GGG/ 8.GG/L	8.g\ 8.b\ 8.dd\L	.
8.GGG/ 8.GG/J	8.g\ 8.b\ 8.dd\J	.
8GGG/ 8GG/L	8g\ 8b\ (8dd\L	.
16GGG/ 16GG/Jk	16b\ 16dd\ 16gg\Jk)	.
=17	=17	=17
*>B1	*>B1	*>B1
(8GGG/ 8GG/L	8b\ (8dd\L	.
16CC/ 16C/Jk	16g\ 16cc\ 16ee\Jk)	.
8.CC/) 8.C/	8.g\ 8.cc\ 8.ee\	p
8.E/	8.e/	.
=18:|!	=18:|!	=18:|!
*>B2	*>B2	*>B2
(8GGG/ 8GG/L	8b\ 8dd\ (8gg\L	.
16CC/) 16C/Jk	16g\ 16cc\ 16ee\Jk)	.
16CC\ 16C\LL	8.g\ 8.cc\ 8.ee\	p
(16G\	.	.
16F\JJ	.	.
16E\LL	8cc/L	.
16C\	.	.
[16G\JJ)	16e/Jk	.
=19!|:	=19!|:	=19!|:
*>C	*>C	*>C
16G\LL]	8a/L	.
16C#\	.	.
[16G\JJ	16e/Jk	.
16G\LL]	8g/L	.
16D\	.	.
[16G\JJ	16f/Jk	.
16G\LL]	8dd/L	.
16AA#\	.	.
[16G\JJ	16d/Jk	.
=20	=20	=20
16G\LL]	8g/L	.
16BB\	.	.
[16G\JJ	16d/Jk	.
16G\LL]	8f/L	.
16Cn\	.	.
16G\JJ	16e/Jk	.
16E\LL	8g/L	.
16D\	.	.
[16G\JJ	16f/Jk	.
=21	=21	=21
16G\LL]	8a/L	.
16D#\	.	.
16E\JJ	16g/Jk	.
16G\LL	8ee/L	.
16C\	.	.
[16G\JJ	16e/Jk	.
16G\LL]	8cc/L	.
16E\	.	.
[16G\JJ	16e/Jk	.
=22	=22	=22
16G/LL]	8e-/ 8cc/L	.
16FF#/	.	.
[16G/JJ	16d/ 16b/Jk	.
16G/LL]	8c/ (8a/L	.
16GG/	.	.
[16G/JJ	16B/ 16g/Jk)	.
16G/LL]	8c/ 8a/L	.
16FFn/	.	.
[16G/JJ	16d/ 16b/Jk	.
=23	=23	=23
*	*^	*
16G/LL]	4.r	8cc/L	<
16EE/	.	.	.
[16G/JJ	.	16en/Jk	.
16G/LL]	.	8ee\L	.
16CC/	.	.	.
[16E/JJ	.	16g\Jk	.
16E/LL]	8gg/L	8b-\L	.
16CC/	.	.	.
[16E/JJ	16b-/Jk	16g\Jk	.
=24	=24	=24	=24
16E/LL]	8gg/L	8a\L	.
16CC#/	.	.	.
[16E/JJ	16a/Jk	16g\Jk	.
16E/LL]	8ff/L	8.a\	>
16DD/	.	.	.
16F/JJ	(16a/Jk	.	.
16F#/LL	8dd/L)	8a\L	.
16FF#/	.	.	.
16A/JJ	16cc/Jk	16f#\Jk	.
=25	=25	=25	=25
16A-\LL	8cc/L	8.d\ 8.fn\L	.
16GG\	.	.	.
16G\JJ	16bn/Jk	.	.
16An\LL	8cc/L	[8.d\ [8.f\J	.
16GG\	.	.	.
[16B-\JJ	16cc#/Jk	.	.
16B-\LL]	16cc#/LL	16d\] 16f\LL]	.
16Bn\	16g/ 16dd/	16d\ 16f\	.
16B\JJ	16g/JJ	16d\ 16f\JJ	.
*	*v	*v	*
=26	=26	=26
*>C1	*>C1	*>C1
*	*^	*
(16B\LL	4g/	(16f\LL	.
16c\	.	16e\	.
16F\JJ	.	16d\JJ	.
16E\LL	.	16c\LL	.
16F\	8r	16d\	.
16D\JJ)	.	16B\JJ)	.
(16E\LL	(8cc/L	8.r	.
16C\	.	.	.
16G\JJ)	16e/Jk)	.	.
*	*v	*v	*
=27:|!	=27:|!	=27:|!
*>C2	*>C2	*>C2
*	*^	*
16B\LL	8.g/	16d\ (16f\LL	.
16c\	.	16e\	.
16d\JJ	.	16f\JJ	.
16c\LL	16g/LL)	16e\LL	.
16B\	16g#/	16d\ 16e\	.
16A\JJ	16a/JJ	16c\ 16e\JJ	.
16G#\LL	16b/LL	16B\ 16e\LL	.
16A\	16e/	16c\	.
16B\JJ	16e/JJ	16d\JJ	.
=28	=28	=28	=28
16A\LL	8cc/L	8r	.
16AA\	.	.	.
[16E\JJ	16e/Jk	16c\	.
*	*v	*v	*
=!|:	=!|:	=!|:
*>D	*>D	*>D
*	*^	*
16E/LL]	8f/L	8B\ 8d\	.
16GG#'/	.	.	.
[16E/JJ	16e/Jk	8.r	.
16E/LL]	8cc/L	.	.
16AA/	.	.	.
[16E/JJ	16c/ 16e/Jk	16r	.
*	*v	*v	*
=29	=29	=29
16E/LL]	8b/L	.
16GG#/	.	.
[16E/JJ	(16B/ [16e/Jk	.
16E/LL]	16c/) 16e/LL]	>
16AA/	16cc/	.
[16E/JJ	16b/JJ	.
16E/LL]	16cc/LL	.
16GG#/	16g/ 16dd/	.
[16G#/JJ	[16b/ 16ee/JJ	.
=30	=30	=30
*	*^	*
16G#\LL]	(8ff/L	16b\LL]	.
16G#\	.	16b\	.
[16A\JJ	16ee/Jk)	16cc\JJ	.
16A\LL]	(8ee/L	8cc\L	.
16A\	.	.	.
[16B\JJ	16dd/Jk)	16g#\Jk	.
16B\LL]	16dd/LL	16g#\LL	.
16c\	16cc/	16a\	.
16d\JJ	[16cc/JJ	[16a\JJ	.
*	*v	*v	*
=31	=31	=31
(16d#\LL	16a/] 16cc/LL]	<
16e\)	16g#/ 16b/	.
[16e\JJ	[16g#/ (16b/JJ	.
(16e\LL]	16g#/] 16b/LL	.
16A\)	16e/ 16cc/)	.
[16A\JJ	[16e/ [16cc/JJ	.
(16A\LL]	(16e/] 16cc/LL]	p
16Gn\)	16b/) 16dd/	.
[16G\JJ	16b/ 16dd/JJ	.
=32	=32	=32
*	*^	*
(16G\LL]	4.dd/	(8b\L	.
16GG\	.	.	.
[16G\JJ	.	16f\Jk	<
16G\LL]	.	8e\L	.
16GG\	.	.	.
[16G\JJ	.	16f\Jk)	.
16G\LL]	8.dd#/	8b\L	.
16GG\	.	.	.
[16G\JJ)	.	16f\Jk	.
=33	=33	=33	=33
16G/LL]	8.ee/	8b-\L	.
16CC/	.	.	.
[16C/JJ	.	16e\Jk	.
16C/LL]	8b-/ (8ee/L	8g\L	.
16CC/	.	.	.
[16C/JJ	16ee/ 16gg/Jk)	16b-\Jk	.
16C/LL]	8gg/L	8.a\	.
16FFF/	.	.	.
16FF/JJ	16ff/Jk	.	.
=34	=34	=34	=34
16GG/LL	(8ee/L	8.f\ 8.b\L	.
16GGG/	.	.	.
[16GG/JJ	16ddn/Jk)	.	.
16GG/LL]	(8cc#/L	8.f\ 8.b\J	.
16GGG/	.	.	.
[16GG/JJ	16dd/Jk	.	.
16GG/LL]	(16dd/LL)	8b\L	.
16GGG/	16aa/	.	.
16BB/JJ	16gg/JJ)	16dd\Jk	.
*	*v	*v	*
=35	=35	=35
*>D1	*>D1	*>D1
*^	*^	*
16r	16BB\LL	(16gg/LL	16dd\LL	.
16G/LL	16GG\	16ff/	16b\	.
16G/JJ	[16C\JJ	16ee/JJ	[16ccn\JJ	.
16A/LL	8C\]	16ff/LL	16cc\LL_	.
&(16G/&)	.	16ee/)	16cc\JJ]	.
16E/JJ	16r	(16e/JJ	16r	.
8.r	16F\LL	16f/LL	8.r	.
.	&(16E\&)	16e/)	.	.
.	[16E\JJ	(16e/JJ	.	.
*v	*v	*	*	*
*	*v	*v	*
=36	=36	=36
16E\LL]	8cc/L	.
16AA\	.	.
16E\JJ	16c/) 16e/Jk	.
=:|!	=:|!	=:|!
*>D2	*>D2	*>D2
*^	*	*
16r	16BB\LL	16dd\ (16gg\LL	.
16G/LL	16GG\	16b\ 16ff\	.
(16G/JJ	[16C\JJ	[16cc\ 16ee\JJ	.
16A/LL)	8C\L]	16cc\_ 16ff\LL	.
16G/	.	16cc\] 16ee\	.
16G/JJ	16C\Jk	16cc\ 16ee\JJ)	.
*v	*v	*	*
=!|:	=!|:	=!|:
*>E	*>E	*>E
*M6/16	*M6/16	*M6/16
(16c\LL	8.r	.
32G\k	.	.
16F#\	.	.
32G\JJk)	.	.
=37	=37	=37
*	*^	*
16G\LL	(24ee/LL	24g\LL	.
.	48cc/k	48e\k	.
[16G\JJ	24b/	24d\	.
.	48cc/JJk	48e\JJk	.
16G\LL]	24dd/LL	24f\LL	.
.	48b/k	48d\k	.
16G\JJ	24a#/	24c#\	.
.	48b/JJk)	48d\JJk	.
(24D/LL	8r	8r	.
48GG/k	.	.	.
24FF#/	.	.	.
48GG/JJk)	.	.	.
*	*v	*v	*
=38	=38	=38
*^	*	*
24Fn/LL	16AA\LL	8r	.
48D/k	.	.	.
(24C#/	16BB\JJ	.	.
48D/JJk	.	.	.
4r	16BB\LL)	24g/LL	pp
.	.	48e/k	.
.	16Cn\JJ	24d#/	.
.	.	48e/JJk	.
.	16C#\LL	24g/LL	.
.	.	48e/k	.
.	16D\JJ	24g/	.
.	.	48f/JJk	.
*v	*v	*	*
=39	=39	=39
16D#\LL	24a/LL	.
.	48f#/k	.
16E\JJ	24a/	.
.	48g/JJk	.
24Dn\LL	8g/ 8ee/	.
48BB\k	.	.
24D\	.	.
48C\JJk	.	.
24F\LL	8g/ 8cc/	.
48D#\k	.	.
24F\	.	.
48E\JJk	.	.
=40	=40	=40
*	*^	*
8G\	24cc/LL	24e\LL	.
.	48b/k	48d\k	.
.	24dd/	24fn\	.
.	48cc/JJk	48e\JJk	.
8GG/	24cc/LL	24e\LL	.
.	48a#/k	48c#\k	.
.	24cc/	24e\	.
.	48b/JJk	48dn\JJk	.
24FF/LL	8g/ 8b/	8d\	.
48EE/k	.	.	.
24GG/	.	.	.
48FF/JJk	.	.	.
=41	=41	=41	=41
24EE/LL	8cc/	8g\	.
48DD/k	.	.	.
24FF/	.	.	.
48EE/JJk	.	.	.
24CC/LL	24ee/LL	16e\LL	.
48BBB/k	48dd/k	.	.
24DD/	24ff/	16g\JJ	.
48CC/JJk	48ee/JJk	.	.
24BBB-/LL	[8gg/	24dd\LL	.
48AAA/k	.	48cc#\k	.
24CC/	.	24ee\	.
48BBB-/JJk	.	48dd\JJk	.
=42	=42	=42	=42
16AAA/LL	16gg/LL]	24cc#\LL	.
.	.	48b\k	.
16AA/JJ	[16gg/JJ	24dd\	.
.	.	48cc#\JJk	.
16DD/LL	24gg/LL]	16a\LL	.
.	(48ee/k	.	.
16D/JJ	24gg/	16a\JJ	.
.	48ff/JJk	.	.
16FF/LL	24ee/LL	16a\LL)	.
.	48cc#/k	.	.
[16FF#/JJ	24ee/	16a\JJ	.
.	48dd/JJk	.	.
=43	=43	=43	=43
*^	*	*	*
24FF#/LL]	8r	16ccn/LL	16a\LL	.
48FF#/k	.	.	.	.
24AA/	.	16b/JJ	16d\JJ	.
48GG/JJk	.	.	.	.
16AA/LL	[8GG\	16cc/LL	24g\LL	.
.	.	.	48e\k	.
[16BB-/JJ	.	16cc#/JJ	24g\	.
.	.	.	[48f\JJk	.
16BB-/LL]	16GG\LL]	16dd/LL	24f\LL]	.
.	.	.	48d\k	.
[16BBn/JJ	[16GG\JJ	24dd/	24f\ 24a-\	.
.	.	48g/JJk	48f\JJk	.
*v	*v	*	*	*
*	*v	*v	*
=44	=44	=44
*>E1	*>E1	*>E1
*^	*^	*
16BB/]	24GG\LL]	16g/LL	24d\ 24f\LL	.
.	(48BB\k	.	48d\k	.
8.r	24D\	[16g/JJ	24B\	.
.	48E\JJk	.	48c\JJk	.
.	24F\LL	16g/LL]	24d\LL	.
.	48E\k	.	48c\k	.
.	24D\	16g/JJ	24f\	.
.	(48C\JJk)	.	48e\JJk	.
*v	*v	*	*	*
*	*v	*v	*
=45:|!	=45:|!	=45:|!
*>E2	*>E2	*>E2
*	*^	*
24GG/) &(24BB/LL&)	16g/LL	24d\ 24f\LL	.
48BB/k	.	48d\k	.
24D/	[16g/JJ	24B\ 24f\	.
48C/JJk	.	48c\ 48e\JJk	.
24C/LL	24g/LL]	24e\LL	.
48BB/k	48g#/k	48d\ 48e\k	.
24AA/	24a/	24c\ 24e\	.
[48GG#/JJk	48b/JJk	[48B\ 48e\JJk	.
24GG#/LL]	24e/LL	24B\LL]	.
48GG#/k	48e/k	48d\k	.
24AA/	24e/	24A\ 24c\	.
48BB/JJk	48e/JJk	48G#\ 48d\JJk	.
*	*v	*v	*
=46!|:	=46!|:	=46!|:
*>F	*>F	*>F
*^	*^	*
(24AA/LL	16AA\LL	[16cc/LL	24c\LL	.
48D#/k	.	.	48d#\k	.
[16E/JJ	24AA\)	24cc/]	[16e\JJ	.
.	48GG#\JJk	48b/JJk	.	.
24E/LL]	[24AA\LL	[16cc/LL	24e\LL]	.
48D#/k	48AA\k]	.	48d#\k	.
[16E/JJ	16GG#\JJ	24cc/]	[16e\JJ	.
.	.	48b/JJk	.	.
24E/LL]	[16AA\LL	[16cc/LL	24e\LL]	.
48D#/k	.	.	48d#\k	.
[16E/JJ	24AA\]	24cc/]	[16e\JJ	.
.	48GG#\JJk	48b/JJk	.	.
=47	=47	=47	=47	=47
24E/LL]	[16GG#\LL	[16b/LL	24e\LL]	.
48F/k	.	.	48f\k	.
[16E/JJ	24GG#\]	24b/]	[16e\JJ	.
.	48AA\JJk	48cc/JJk	.	.
24E/LL]	[16GG#\LL	[16b/LL	24e\LL]	.
48F/k	.	.	48f\k	.
[16E/JJ	24GG#\]	24b/]	[16e\JJ	.
.	48AA\JJk	48cc/JJk	.	.
24E/LL]	[16GG#\LL	[16b/LL	24e\LL]	.
48F/k	.	.	48f\k	.
16E/JJ	24GG#\]	24b/]	16e\JJ	.
.	(48GG#\JJk	48ee/JJk	.	.
*v	*v	*	*	*
*	*v	*v	*
=48	=48	=48
24GGG#/ 24GG#/LL)	[16b\ [16ee\LL	.
48GGG#/ 48GG#/k	.	.
[16AAA/ [16AA/JJ	24b\] 24ee\]	.
.	48cc\ 48ee\JJk	.
24AAA/] 24AA/LL]	[16cc\ [16ee\LL	.
(48AAA/ 48AA/k	.	.
16BBB/ 16BB/JJ	24cc\] 24ee\]	.
.	48g#\ 48b\ 48dd\JJk	.
24CC/ &(24C/LL&)	24e/ 24b/ 24dd/LL	.
48DD/ 48D/k	48f/ 48a/ 48cc/k	.
24DD#/ 24D#/	24f#/ 24a/ 24cc/	.
48EE/) 48E/JJk	&(48B/&) 48g#/ 48b/JJk	.
=49	=49	=49
24EE/ 24E/LL	24B/ 24g#/ 24b/LL	<
[48EE/ [48E/k	[48B/ 48g#/ [48b/k	.
24EE/] 24E/]	24B/] 24g#/ 24b/]	.
[48EE/ [48E/JJk	[48B/ 48g#/ [48b/JJk	.
24EE/] 24E/LL]	24B/] 24g#/ 24b/LL]	.
[48AAA/ [48AA/k	[48c/ 48a/ [48cc/k	.
24AAA/] 24AA/]	24c/] 24a/ 24cc/]	.
[48AAA/ [48AA/JJk	[48c/ 48a/ [48cc/JJk	.
24AAA/] 24AA/LL]	24c\] 24a\ 24cc\LL]	.
[48GGGn/ [48GGn/k	[48d\ 48b\ [48dd\k	.
24GGG/] 24GG/]	24d\] 24b\ 24dd\]	.
48GGG/ 48GG/JJk	48dd\ 48bb\ 48ddd\JJk	p
=50	=50	=50
*^	*^	*
24GGG/ 24GG/	16r	8r	24dd\ 24bb\ (24ddd\LL	<
48f/LLK	.	.	48dd\k	.
24e/	[16G\	.	24cc#\	.
48f/JJk	.	.	48dd\JJk)	.
24f/LL	(8G\]	[8dd/	24dd\LL	.
48d/k	.	.	48b\k	.
24c/	.	.	24a#\	.
48d/JJk)	.	.	48b\JJk	.
16B/LL	16G\LL	24dd/LL]	16gn\LL	.
.	.	48dd#/k	.	.
24d/	[16G\JJ	24ff/	[16g\JJ	.
48cn/JJk	.	48ee/JJk	.	.
=51	=51	=51	=51	=51
24c/LL	16G\LL]	[8ee/	24g\LL]	.
48e/k	.	.	48ccn\k	.
24d#/	[16c\JJ	.	24b\	.
48e/JJk	.	.	48cc\JJk	.
24e/LL	16c\LL]	16ee/LL]	24cc\LL	.
48g/k	.	.	48b-\k	.
24f#/	[16c\JJ	[16ee/JJ	24a\	.
48g/JJk	.	.	48b-\JJk	.
24g/LL	16c\LL]	24ee/LL]	[16b-\LL	.
48g/k	.	48ee/k	.	.
24e/	16Fn\JJ	24gg/	24b-\]	.
48f#/JJk	.	48ff/JJk	48a\JJk	.
=52	=52	=52	=52	=52
24c/LL	24F#\LL	(24ddn/LL	24a\LL	.
48A/k	48A\k	48ff#/k	48cc\k	.
24c/	24F#\	24aa/	[16dd\JJ	.
[48B/JJk	[48G\JJk	[48gg/JJk)	.	.
24B/LL]	16G\LL]	(16gg/LL]	24dd\LL]	.
48B/k	.	.	48dd#\k	.
16c/JJ	[16G\JJ	24aa/	[16ee\JJ	.
.	.	[48gg/JJk)	.	.
24c#/LL	16G\LL]	(24gg/LL]	24ee\LL]	.
48d/k	.	48ffn/k	48ffn\k	.
24f/	24G\	24aa/	24b\ 24ff\	.
48d/ 48f/JJk	48G\JJk	48gg/JJk)	48b\ 48ddn\JJk	.
*v	*v	*	*	*
*	*v	*v	*
=53	=53	=53
*>F1	*>F1	*>F1
*	*^	*
24G\ 24d\ 24f\LL	[16gg/LL	24b\ 24dd\LL	>
48GG\ 48G\k	.	48b\k	.
24AA\ (24A\	24gg/]	24cc\	.
48BB\ 48B\JJk)	48ff/JJk	48dd\JJk	p
24C\ 24c\LL	16ee/	24g\LL	.
(48D\k	.	48B\k	.
24E\	16r	24c\	.
48F\JJk	.	48d\JJk	.
24E\LL	24r	(24c\LL	.
48D\k	[48e/LLK	48B\k)	.
24C\	24e/]	24A\	.
48BB\JJk)	48e/JJk	48G#\ 48d\JJk	.
*	*v	*v	*
=54:|!	=54:|!	=54:|!
*>F2	*>F2	*>F2
*	*^	*
24G\ 24d\ 24f\LL	[16gg/LL	24b\ 24dd\LL	f
48GG\ (48G\k	.	48b\k	.
24AA\ 24A\	24gg/]	24cc\	.
48BB\ 48B\JJk	48ff/JJk	48dd\JJk	.
24C\ 24c\LL)	24ee/LL	24g\LL	p
*clefG2	*	*	*
48b\k	[48gg/k	48dd\k	.
24cc\	24gg/]	24ee\	.
48dd\JJk	48gg/JJk	48ff\JJk	.
*	*v	*v	*
=	=	=
*>G	*>G	*>G
*M12/32	*M12/32	*M12/32
*MM30	*MM30	*MM30
*clefF4	*	*
8r	(48ccc\LLL	f
.	96gg\k	.
.	48ee\	.
.	96cc\JJJk	.
.	48g\LLL	.
.	96e\k	.
.	48c\	.
.	96G\JJJk)	.
=55	=55	=55
(48CC\LLL	[32e/ [32g/LLL	.
96EE\k	.	.
48GG\	48e/] 48g/]	.
96C\k	[96e/ [96g/k	.
48E\	32e/_ 32g/_	.
96G\k	.	.
48B\	48e/] 48g/]	.
96c\JJJk)	96e/ 96g/JJJk	.
(48DD\LLL	[32f/ [32g/LLL	.
96GG\k	.	.
48BB\	48f/] 48g/]	.
96D\k	[96f/ [96g/k	.
48G\	32f/_ 32g/_	.
96B\k	.	.
48c#\	48f/] 48g/]	.
96d\JJJk)	96f/ 96g/JJJk	.
8r	(48fff\LLL	.
.	96ddd\k	.
.	48bb\	.
.	96gg\k	.
.	48ff\	.
.	96dd\k	.
.	48b\	.
.	96g\JJJk)	.
=56	=56	=56
(48DD\LLL	[32f/ [32g/LLL	pp
96GG\k	.	.
48BB\	48f/] 48g/]	.
96D\k	[96f/ [96g/k	f
48G\	32f/_ 32g/_	.
96B\k	.	.
48c#\	48f/] 48g/]	.
96d\JJJk)	96f/ 96g/JJJk	.
(48EE\LLL	[32g/LLL	.
96GG\k	.	.
48C\	48g/]	.
96E\k	[96g/k	.
48G\	32g/_	.
96c#\k	.	.
48d\	48g/]	.
96e\JJJk)	96g/JJJk	.
8r	(48ggg\LLL	.
.	96eee\k	.
.	48ccc\	.
.	96gg\k	.
.	48ee\	.
.	96cc\k	.
.	48g\	.
.	96gg\JJJk)	.
=57	=57	=57
48EE\LLL	[32g\ [32b-\ [32cc#\ [32gg\LLL	.
96BB-\k	.	.
48C#\	48g\] 48b-\] 48cc#\] 48gg\]	.
96E\k	[96g\ 96b-\ 96cc#\ [96gg\k	.
48F\	32g\_ [32bn\ [32dd\ 32gg\_	.
96Bn\k	.	.
48d\	48g\] 48b\] 48dd\] 48gg\]	.
96f\JJJk	96g\ 96b\ 96dd\ 96gg\JJJk	.
(48D#\LLL	[32g\ [32b\ [32gg\LLL	.
96G\k	.	.
48B\	48g\] 48b\] 48gg\]	.
96d#\k	[96g\ 96b\ [96gg\JJJk	.
48E\	32g\_ [32ccn\ 32gg\LLL_	.
96G\k	.	.
48c\	48g\] 48cc\] 48gg\]	.
96e\JJJk)	96g\ 96cc\ 96gg\JJJk	.
(48C#\LLL	[32ee\ [32gg\ [32eee\LLL	.
96E\k	.	.
48G\	48ee\] 48gg\] 48eee\]	.
96c\JJJk)	[96ee\ 96gg\ [96eee\JJJk	.
(48CC/LLL	32ee\] [32gg\ 32eee\LLL_	.
96EE/k	.	.
48GG/	48ee\ 48gg\] 48eee\]	.
96C#/JJJk)	96cc\ 96ee\ 96ccc\JJJk	.
=58	=58	=58
[32GGG/ [32GG/LLL	(48ccc\LLL	.
.	96aa\k	.
48GGG/] 48GG/]	48ff#\	.
[96GGG/ [96GG/k	96ee-\k	.
32GGG/_ 32GG/_	48cc\	.
.	96a\k	.
48GGG/] 48GG/]	48f#\	.
[96GGG/ [96GG/JJJk	96e-\ 96cc\JJJk)	.
32GGG/_ 32GG/LLL_	(48bb\LLL	.
.	96gg\k	.
48GGG/] 48GG/]	48dd\	.
[96GGG/ [96GG/k	96b\k	.
32GGG/_ 32GG/_	48g\	.
.	96d\k	.
48GGG/] 48GG/]	48B\)	.
[96FFFn/ 96FFn/JJJk	[96b\ [96dd\ 96aa-\ [96bb\JJJk	f
(48FFF/LLL]	32b\_ 32dd\_ [32aa-\ 32bb\LLL_	.
96BBB/k	.	.
48DD/	48b\] 48dd\] 48aa-\] 48bb\]	.
96FF/k	96b\ 96dd\ 96aa-\ [96bb\k	.
48BB/	[32b\ [32dd\ [32gg\ 32bb\_	.
96D/k	.	.
48E/	48b\] 48dd\] 48gg\] 48bb\]	.
96F/JJJk)	96b\ 96dd\ 96gg\ 96bb\JJJk	.
=59	=59	=59
32EE/ 32E/	(48ccc\LLL	.
.	96gg\k	.
32r	48ee\	.
.	96cc\k	.
32r	48g\	.
.	96e\k	.
48g\LLL	48ee\	.
96e\JJJk	96cc\JJJk)	.
48c\LLL	48ee\LLL	.
96G\k	96cc\k	.
48E\	48gg\	.
96C\JJJk	96ee\k	.
48e\LLL	48cc\	.
96c\k	96g\k	.
48G\	48ee\	.
96E\JJJk	96cc\JJJk	.
48e\LLL	48gg\LLL	.
96c\k	96ee\k	.
48G\	48ccc\	.
96E\JJJk	96gg\k	.
48c\LLL	48ee\	.
96G\k	96cc\k	.
48E\	48gg\	.
96C\JJJk	96ee\JJJk	.
=60	=60	=60
48A\LLL	32r	.
96G\k	.	.
48E\	48gg\LLL	.
96C#\k	96ee\k	.
48AA\	48cc#\	.
96G\k	96ee\k	.
48E\	48gg\	.
96C#\JJJk	96ee\JJJk	.
48A\LLL	48ff\LLL	.
96F\k	96dd\k	.
48D\	48ff\	.
96F\k	96a\k	.
48D\	48ff\	.
96d\k	96f\k	.
48f\	48a\	.
96d\JJJk	96f\JJJk	.
48f\LLL	48a\LLL	.
96d\k	96f\k	.
48A\	48ff\	.
96F\k	96dd\k	.
48f\	48a\	.
96d\k	96aa\k	.
48A\	48ff\	.
96F\JJJk	96dd\JJJk	.
*clefG2	*	*
=61	=61	=61
48G/LLL	48ccn\LLL	.
96f/k	96b\k	.
48d/	48ff\	.
96B/k	96dd\k	.
48G/	48bb\	.
96B/k	96ff\k	.
48d/	48dd\	.
96f/JJJk	96b\JJJk	.
48A-/LLL	48dd\LLL	.
96a-/k	96cc\k	.
48f/	48aa-\	.
96c/k	96ff\k	.
48An/	48ccc\	.
96c/k	96aan\k	.
48f/	48ff\	.
96an/JJJk	96cc\JJJk	.
48B-/LLL	48ee-\LLL	.
96b-/k	96dd\k	.
48B-/	48ddd\	.
96b-/k	96dd\k	.
48B-/	48ddd\	.
96b-/k	96dd\k	.
48Bn/	48ddd\	.
96bn/JJJk	96dd\ 96gg\JJJk	.
=62	=62	=62
*>G1	*>G1	*>G1
*	*^	*
(48B/LLL	[32gg/LLL	(48dd\LLL	.
96c/k	.	96een\k	.
48d/)	48gg/]	48ff\)	.
(96B/JJJk	([96gg/JJJk	96dd\JJJk	.
48d/LLL	32gg/LLL_	48b\LLL	.
96e/k	.	96cc\k	.
48f/)	48gg/]	48dd\)	.
(96e/JJJk	[96gg/JJJk	96cc\JJJk	.
48b\LLL	32gg/LLL_	48dd\LLL	.
96cc\k	.	96ee\k	.
48dd\)	48gg/]	48ff\	.
(96cc\JJJk	96gg/JJJk	96ee\JJJk	.
48dd\LLL	(48ff/LLL	16r	.
96ee\k	96gg/k	.	.
48ff\	48aa/	.	.
96dd\JJJk)	96bb/JJJk)	.	.
*	*v	*v	*
=63:|!	=63:|!	=63:|!
*>G2	*>G2	*>G2
*	*^	*
48B/LLL	[32gg/LLL	(48dd\LLL	.
96c/k	.	96een\k	.
48d/	48gg/]	48ff\)	.
(96B/JJJk	(96gg/JJJk	96ff\JJJk	.
48d/LLL	[32gg/LLL	48b\LLL	.
96e/k	.	96cc\k	.
48f/)	48gg/]	48dd\)	.
(96e/JJJk	[96gg/JJJk	(96cc\JJJk	.
48b\LLL	32gg/LLL_	48dd\LLL	.
96cc\k	.	96ee\k	.
48dd\)	48gg/]	48ff\)	.
(96cc\JJJk	[96gg/JJJk	(96ee\JJJk	.
48dd\LLL	32gg/LLL_	48ff\LLL	.
96b\k	.	96dd\k	.
48dd\	48gg/])	48ff\	.
96cc\JJJk)	96gg/JJJk	96ee\JJJk	.
48b/LLL	48gg#/LLL	48dd\LLL	.
96a/k	96aa/k	96cc\k	.
48g#/JJJ	48bb/	48b\JJJ	.
96r	[96e/JJJk	96r	.
*clefF4	*	*	*
(48GGG#/LLL	48e/LLL]	48B\LLL	.
96AAA/k	(96e/k	96c\k	.
48BBB/)	48e/	48d\)	.
[96AAA/JJJk	96e/JJJk	96c\JJJk	.
*	*v	*v	*
=64!|:	=64!|:	=64!|:
*>H	*>H	*>H
48AAA/LLL]	[32e/ [32cc/LLL	f
96CC/k	.	.
48EE/	48e/] 48cc/]	.
96GG#/k	[96e/ [96cc/k	.
48AA/	32e/_ 32cc/_	.
96C/k	.	.
48E/	48e/] 48cc/]	.
96G#/JJJk	96e/ 96cc/JJJk	.
[32A\LLL	(48ccc\LLL	p
.	96gg#\k	.
48A\]	48aa\	.
96A\ 96c\ [96e\k	96ee\k	.
[32A\ [32c\ 32e\_	48dd\	.
.	96cc\k	.
48A\] 48c\] 48e\]	48ee\	.
96A\ 96c\ [96e\JJJk	96cc\JJJk	.
[32A\ [32c\ 32e\LLL_	48b/LLL	.
.	96a/k	.
48A\] 48c\] 48e\]	48cc/	.
96A\ 96c\ [96e\k	96a/k	.
[32A\ [32c\ 32e\_	48b/	.
.	96a/k	.
48A\] 48c\] 48e\JJJ]	48cc/	.
96AAA/ 96AA/	96d/ 96f/ 96b/JJJk)	.
=65	=65	=65
(48GGG#/LLL	[32d/ [32e/ [32b/LLL	f
96BBB/k	.	.
48EE/	48d/] 48e/] 48b/]	.
96GG#/k	[96d/ 96e/ [96b/k	.
48BB/	32d/_ [32e/ 32b/_	.
96E/k	.	.
48G#/	48d/] 48e/] 48b/]	.
96A/JJJk)	96d/ 96e/ 96b/JJJk	.
[32G#\ [32B\ [32e\LLL	48ccc\LLL	p
.	96bb\k	.
48G#\] 48B\] 48e\]	48eee\	.
[96G#\ 96B\ [96e\k	96bb\k	.
32G#\_ [32B\ 32e\_	48aa\	.
.	96gg#\k	.
48G#\] 48B\] 48e\]	48bb\	.
[96G#\ 96B\ [96e\JJJk	96ee\JJJk	.
32G#\] ([32B\ 32e\LLL_	48bb\LLL	.
.	96ee\k	.
48G#\ 48B\]) 48e\]	48ff\	.
[96G#\ 96B\ [96e\k	96dd\k	.
32G#\_ [32B\ 32e\_	48cc\	.
.	96b\k	.
48G#\] 48B\] 48e\]	48ee\	.
96G#\ 96B\ 96e\JJJk	96b\JJJk	.
=66	=66	=66
[32GG#\LLL	(48cc\LLL	.
.	96b\k	.
48GG#\]	48ee\	.
96G#\k	96b\k	.
[32AA\	48dd\	.
.	96cc\k	.
48AA\]	48ee\	.
96A\JJJk	96cc\JJJk	.
[32BB\LLL	48ee\LLL	.
.	96dd\k	.
48BB\]	48gg#\	.
96B\k	96dd\k	.
[32C\	48ff\	.
.	96ee\k	.
48C\]	48aa\	.
96c\JJJk	96ee\JJJk	.
[32D\LLL	48aa\LLL	.
.	96ff\k	.
48D\]	48aa\	.
96d\k	96b\k	.
[32D#\	48aa\	.
.	96ff#\k	.
48D#\]	48aa\	.
96d\JJJk	[96cc\JJJk	.
=67	=67	=67
[16e\LL	48cc\] &(48aa\LLL&)	f
.	96b\k	.
.	48aa\	.
.	96gg\Jk)	.
48e\L]	[16dd\ [16bb\JJ	.
96E\k	.	.
48F\	.	.
96E\JJJk	.	.
[16A\LL	48dd\] (48bb\LLL]	.
.	96cc\k	.
.	48bb\	.
.	96aa\Jk)	.
48A\L]	[16ee\ [16ccc\JJ	.
96AA\k	.	.
48BB\	.	.
96AA\JJJk	.	.
[16GGn/LL	48ee\] (48ccc\LLL]	.
.	96dd\k	.
.	48ccc\	.
.	96bb\JJJk)	.
48GG/L]	[32ffn\ [32ddd\LLL	.
(96GGG/k	.	.
48AAA-/	48ff\] 48ddd\]	.
[96GGG/JJJk)	96ff\ 96ddd\JJJk	.
=68	=68	=68
48GGG/LLL]	32ff\ 32gg\ ([32bb\ [32ddd\LLL	.
(96BBB/k	.	.
48DD/	&(48ff\&) 48gg\ 48bb\]) 48ddd\]	.
96GG/k	[96ff\ 96gg\ 96bb\ [96ddd\k	.
48BB/	32ff\] 32gg\ ([32bb\ 32ddd\_	.
96D/k	.	.
48F#/	&(48ff\&) 48gg\ 48bb\]) 48ddd\]	.
96G/JJJk)	[96ff\ 96gg\ 96bb\ [96ddd\JJJk	.
[32GG/ [32BB/ [32D/ [32Fn/LLL	48ff\] 48gg\ 48bb\ (48ddd\LLL]	.
.	96bb\k	.
48GG/] 48BB/] 48D/] 48F/]	48fff\	.
[96GG/ 96BB/ 96D/ [96F/k	96ddd\JJJk	.
32GG/_ [32BB/ [32D/ 32F/_	48ccc\LLL	.
.	96bb\k	.
48GG/] 48BB/] 48D/] 48F/]	48ddd\	.
[96GG/ 96BB/ 96D/ [96F/JJJk	96bb\JJJk	.
32GG/_ [32BB/ [32D/ 32F/LLL_	48gg\LLL	.
.	96ff\k	.
48GG/] 48BB/] 48D/] 48F/]	48aa\	.
[96GG/ [96BB/ [96D/ [96F/k	96ff\k	.
32GG/_ 32BB/_ 32D/_ 32F/]	48ee\	.
.	96dd\k	.
48GG/] 48BB/] 48D/] 48F/	48ff\	.
96GG/ 96BB/ 96D/ 96F/JJJk	96dd\JJJk)	.
=69	=69	=69
*	*^	*
(48CC/LLL	8r	[32g\ [32cc\ [32ee\LLL	.
96EE/k	.	.	.
48GG/	.	48g\] 48cc\] 48ee\]	.
96BB/k	.	[96g\ 96cc\ [96ee\k	.
48C/	.	32g\_ [32cc\ 32ee\_	.
96E/k	.	.	.
48G/	.	48g\] 48cc\] 48ee\]	.
96B/JJJk)	.	[96g\ 96cc\ [96ee\JJJk	.
(48c\LLL	48g/] 48cc/ 48ee/LLL]	16r	.
96f\k	96g/ 96b/k	.	.
48e\	48a/ 48cc/	.	.
96d\JJJk)	96b/ 96dd/JJJk	.	.
48c\LLL	[16ee/	48g\LLL	.
(96CC/k	.	96e\k	.
48DD/	.	48f\	.
96EE/JJJk	.	96g\JJJk	.
48FF\LLL)	(48ee/LLL]	[16a\	.
(96G\k	96cc#/k	.	.
48F\	48dd/	.	.
96E\JJJk)	96ee/Jk	.	.
48D/LLL	[16ff/JJ)	48a\LLL]	.
(96DD/k	.	96f\k	.
48EE/	.	48g\	.
96FF/JJJk)	.	96a\JJJk	.
=70	=70	=70	=70
16GG/	8r	48b\ (48ff\LLL]	.
.	.	96a#\ 96cc#\k	.
.	.	48b\ 48dd\	.
.	.	96ccn\ 96ee\Jk)	.
(48G\LLL	.	(16b\ [16dd\JJ	.
96F#\k	.	.	.
48G\	.	.	.
96A\JJJk)	.	.	.
[16B\	48dd/LLL]	[16g\)	.
.	96cc#/k	.	.
.	48dd/	.	.
.	&(96ee/Jk&)	.	.
(48B\LLL]	[16dd/JJ	48g\LLL]	.
96c\k	.	96an\k	.
48d\	.	48b\	.
96e\JJJk	.	96ccn\JJJk	.
48f\LLL	(48dd/LLL]	16b\	.
96e\k	96ee/k	.	.
48d\	48ff/	.	.
96c\JJJk	96ff#/Jk	.	.
48B\LLL	[16gg/JJ)	48r	.
96c\k	.	96ee\LLLK	.
48B\	.	48dd\	.
96A\JJJk)	.	96cc\JJJk	.
*	*v	*v	*
=71	=71	=71
*>H1	*>H1	*>H1
*	*^	*
48B\LLL	48gg/LLL]	48dd\LLL	.
[96B\k	96aa/k	[96dd\k	.
48B\]	48gg/	48dd\]	.
[96B\JJJk	96aa/k	[96dd\JJJk	.
48B\LLL]	48gg/	48dd\LLL]	.
(96B\k	96dd/ 96ffn/k	[96g\JJJk	.
48c\	48cc/ 48ee/	48g\LLL]	.
96B\JJJk	96dd/ 96ff/JJJk	[96g\JJJk	.
48c\LLL)	48g/] 48cc/ 48ee/LLL	8r	.
96B\k	96g/ 96dd/ 96ff/k	.	.
48c\	48g/ 48cc/ 48ee/	.	.
96d\k	(96dd/k	.	.
48e\	48cc/	.	.
96d\k	96b/k	.	.
48e\	48cc/	.	.
96c\JJJk	96ee/JJJk)	.	.
32r	(48e/LLL	8r	.
.	96cc/ 96ee/k	.	.
48r	48e/	.	.
[96EE/	96b/ 96dd/JJJk	.	.
32EE/LLL_	48e/LLL	.	.
.	96a/ 96cc/k	.	.
48EE/]	48e/	.	.
96EE/JJJk	96g#/) 96b/JJJk	.	.
*	*v	*v	*
=72:|!	=72:|!	=72:|!
*>H2	*>H2	*>H2
*	*^	*
48B\LLL	48gg/LLL	48dd\LLL	.
[96B\k	96aa/k	[96dd\k	.
48B\]	48gg/	48dd\]	.
[96B\JJJk	96aa/JJJk	[96dd\JJJk	.
48B\LLL]	48gg/LLL	48dd\LLL]	.
(96B\k	96dd/ 96ffn/k	[96g\k	.
48c\	48cc/ 48ee/	48g\]	.
96B\JJJk	96dd/ 96ff/JJJk	[96g\JJJk	.
48c\LLL)	48cc/ 48ee/LLL	32g\]	.
96AA\k	(96c/ 96f/k	.	>
(48GG\	48B/ 48e/	32r	.
96FF\JJJk	96A/ 96d/JJJk	.	.
*	*v	*v	*
*	*clefF4	*clefF4
*	*^	*
48EE\LLL	16c/	48G\LLL	.
96FF\k	.	96A\k	.
48EE\	.	48G\	.
96DD\JJJk)	.	96F\JJJk)	.
*	*v	*v	*
=73	=73	=73
*>I	*>I	*>I
*M9/16	*M9/16	*M9/16
*MM40	*MM40	*MM40
48CC/LLL	16E\ 16c\LL	pp
48GG/	.	.
48CC/	.	.
48GG/	[16E\ [16G\ [16c\	.
48CC/	.	.
48GG/	.	.
48CC/	16E\] 16G\] 16c\JJ]	.
48GG/	.	.
48CC/JJJ	.	.
=74	=74	=74
48GG/LLL	16r	.
48CC/	.	.
48GG/	.	.
48CC/	[16BB\ [16D\ [16F\ [16G\LL	.
48GG/	.	.
48CC/	.	.
48GG/	16BB\] 16D\] 16F\] 16G\JJ]	.
48CC/	.	.
48GG/JJJ	.	.
48CC/LLL	16r	.
48GG/	.	.
48CC/	.	.
48GG/	[16BB\ [16D\ [16F\ [16G\LL	.
48CC/	.	.
48GG/	.	.
48CC/	16BB\] 16D\] 16F\] 16G\JJ]	.
48GG/	.	.
48CC/JJJ	.	.
48GG/LLL	16r	.
48CC/	.	.
48GG/	.	.
48CC/	[16F\ [16G\ [16B\ [16d\LL	.
48GG/	.	.
48CC/	.	.
48GG/	16F\] 16G\] 16B\] 16d\JJ]	.
48CC/	.	.
48GG/JJJ	.	.
=75	=75	=75
48CC/LLL	16r	.
48GG/	.	.
48CC/	.	.
48GG/	16D\ 16F\ [16G\LL	pp
48CC/	.	.
48GG/	.	.
48CC/	16C\ 16E\ 16G\JJ]	.
48GG/	.	.
48CC/JJJ	.	.
48GG/LLL	16r	.
48CC/	.	.
48GG/	.	.
48CC/	[16C\ [16E\ [16G\LL	.
48GG/	.	.
48CC/	.	.
48GG/	16C\] 16E\] 16G\JJ]	.
48CC/	.	.
48GG/JJJ	.	.
48CC/LLL	16r	.
48GG/	.	.
48CC/	.	.
48GG/	[16D\ [16F\ [16G\LL	.
48CC/	.	.
48GG/	.	.
48CC/	16D\] 16F\] 16G\JJ]	.
48GG/	.	.
48CC/JJJ	.	.
=76	=76	=76
48GG/LLL	16r	.
48CC/	.	.
48GG/	.	.
48CC/	16D#\ 16F#\ [16G\LL	.
48GG/	.	.
48CC/	.	.
48GG/	16E\ 16G\JJ]	.
48CC/	.	.
48GG/JJJ	.	.
48CC/LLL	16r	.
48GG/	.	.
48CC/	.	.
48GG/	[16E\ [16G\ [16e\LL	.
48CC/	.	.
48GG/	.	.
48CC/	16E\] 16G\] 16e\JJ]	.
48GG/	.	.
48CC/JJJ	.	.
48GG/LLL	16r	.
48CC/	.	.
48GG/	.	.
48CC/	[16E-\ [16F#\ [16A\ [16c\LL	.
48GG/	.	.
48CC/	.	.
48GG/	16E-\] 16F#\] 16A\] 16c\JJ]	.
48CC/	.	.
48GG/JJJ	.	.
=77	=77	=77
48CC/LLL	16r	.
48GG/	.	.
48CC/	.	.
48GG/	[16D\ [16Fn\ [16A-\ [16c\LL	.
48CC/	.	.
48GG/	.	.
48CC/	16D\] 16F\] 16A-\] 16c\JJ]	.
48GG/	.	.
48CC/JJJ	.	.
48GG/LLL	16r	.
48CC/	.	.
48GG/	.	.
48CC/	[16D\ [16F\ [16A-\ [16B\LL	.
48GG/	.	.
48CC/	.	.
48GG/	16D\] 16F\] 16A-\] 16B\JJ]	.
48CC/	.	.
48GG/JJJ	.	.
48CC/LLL	16r	.
48GG/	.	.
48CC/	.	.
48GG/	[16D\ [16F\ [16G\ [16B\LL	.
48CC/	.	.
48GG/	.	.
48CC/	16D\] 16F\] 16G\] 16B\JJ]	.
48GG/	.	.
48CC/JJJ	.	.
=78	=78	=78
48GG/LLL	16r	.
48CC/	.	.
48GG/	.	.
48CC/	16D#\ 16F#\ [16c\LL	.
48GG/	.	.
48CC/	.	.
48GG/	16E\ 16G\ 16c\JJ]	.
48CC/	.	.
48GG/JJJ	.	.
48CC/LLL	16r	.
48GG/	.	.
48CC/	.	.
48GG/	[16G\ 16B\ [16e\LL	.
48CC/	.	.
48GG/	.	.
48CC/	16G\] 16c\ 16e\JJ]	.
48GG/	.	.
48CC/JJJ	.	.
48GG/LLL	16r	.
48CC/	.	.
48GG/	.	.
*	*clefG2	*clefG2
48CC/	[16B-/ (16d-/ [16e/ [16g/LL	.
48GG/	.	.
48CC/	.	.
48GG/	16B-/] 16d-/ 16e/]) 16g/JJ]	.
48CC/	.	.
48GG/JJJ	.	.
=79	=79	=79
48CC/LLL	16r	.
48GG/	.	.
48CC/	.	.
48GG/	[16B-/ [16d-/ [16e/ [16g/LL	.
48CC/	.	.
48GG/	.	.
48CC/	16B-/] 16d-/] 16e/] 16g/JJ]	.
48GG/	.	.
48CC/JJJ	.	.
48AA/LLL	16r	.
48CC/	.	.
48AA/	.	.
*	*clefF4	*clefF4
48CC/	[16F\ [16c\ [16f\LL	.
48AA/	.	.
48CC/	.	.
48AA/	16F\] 16c\] 16f\JJ]	.
48CC/	.	.
48AA/JJJ	.	.
48CC/LLL	16r	.
48BB/	.	.
48CC/	.	.
48BB/	[16F\ [16A-\ [16dn\LL	.
48CC/	.	.
48BB/	.	.
48CC/	16F\] 16A-\] 16d\JJ]	.
48BB/	.	.
48CC/JJJ	.	.
=80	=80	=80
48D/LLL	16r	.
48CC/	.	.
48D/	.	.
48CC/	16F\ 16A-\ ([16Bn\LL	.
48D/	.	.
48CC/	.	.
48D/	16F\ &(16G\&) 16B\JJ])	.
48CC/	.	.
48D/JJJ	.	.
48CC/LLL	16r	.
48C/	.	.
48CC/	.	.
48C/	16F\ [16G\ [16c\LL	.
48CC/	.	.
48C/	.	.
48CC/	16E\ 16G\] 16c\JJ]	.
48C/	.	.
48CC/JJJ	.	.
48BB/LLL	16r	.
48CC/	.	.
48BB/	.	.
48CC/	[16F\ [16G\ 16d\LL	.
48BB/	.	.
48CC/	.	.
48BB/	16D\ 16F\] 16G\JJ]	.
48CC/	.	.
48BB/JJJ	.	.
*	*clefG2	*clefG2
=81	=81	=81
48BB\LLL	48G/LLL	<
48C\	48A/	.
48D\	48B/	.
48E\	48c/	.
48F\	48d/	.
48G\	48e/	.
48A\	48f/	.
48B\	48g/	.
48c\JJJ	48a/JJJ	.
*clefG2	*	*
48d/LLL	48b\LLL	.
48e/	48cc\	.
48f/	48dd\	.
48g/	48ee\	.
48a/	48ff\	.
48b/	48gg\	.
48cc/	48aa\	.
48ee/	48gg\	.
48dd/JJJ	48bb\JJJ	.
16ee'\LL	48ccc\LLL	pp
.	48ddd\	.
.	48ccc\	.
16ee'\	48bb\	.
.	48ccc\	.
.	48bb\	.
16ee'\JJ	48ccc\	.
.	48ddd\	.
.	48ccc\JJJ	.
=82	=82	=82
16ee'\LL	48gg\LLL	.
.	48aa\	.
.	48gg\	.
16dd#'\	48ff#\	.
.	48gg\	.
.	48ff#\	.
16ee'\JJ	48gg\	.
.	48aa\	.
.	48gg\JJJ	.
16dd#'\LL	48ff#\LLL	.
.	48gg\	.
.	48ff#\	.
16ee'\	48gg\	.
.	48aa\	.
.	48gg\	.
16ee'\ 16gg'\JJ	48ccc#\	.
.	48ddd\	.
.	48ccc#\JJJ	.
16ffn'\ 16gg'\LL	48ddd\LLL	.
.	48eee\	.
.	48ddd\	.
16ee'\ 16gg'\	48ccc#\	.
.	48ddd\	.
.	48ccc#\	.
16ff'\ 16gg'\JJ	48ddd\	.
.	48eee\	.
.	48ddd\JJJ	.
=83	=83	=83
16ee'\ 16gg'\LL	48ccc#\LLL	.
.	48ddd\	.
.	48ccc#\	.
16ff'\ 16gg'\	48ddd\	.
.	48eee\	.
.	48ddd\	.
16b'\ 16ff'\JJ	48gg\	.
.	48aa\	.
.	48gg\JJJ	.
16cc'\ 16ff'\LL	48aa\LLL	.
.	48bb\	.
.	48aa\	.
16b'\ 16ff'\	48gg\	.
.	48aa\	.
.	48gg\	.
16ddn'\ 16ff'\JJ	48bb\	.
.	48cccn\	.
.	48bb\JJJ	.
16ee'\ 16gg'\LL	48ccc\LLL	.
.	48ddd\	.
.	48ccc\	.
16ff'\ 16gg'\	48ddd\	.
.	48eee\	.
.	48ddd\	.
16ff#'\ 16gg'\JJ	48ddd\	.
.	48eee#\	.
.	48ddd\JJJ	.
=84	=84	=84
48gg\LLL	48eee\LLL	.
48ffn\	48aa\	.
48ee\	48gg\	.
48dd#\	48ff#\	.
48ff\	48aa\	.
48ee\	48gg\	.
48dd#\	48ff#\	.
48ff\	48aa\	.
48ee\JJJ	48gg\JJJ	.
48dd#\LLL	48ff#\LLL	.
48ee\	48gg\	.
48ff\	48gg#\	.
48ff#\	48aa\	.
48gg\	48bb-\	.
48gg#\	48bbn\	.
48aa\	48ccc\	.
48aa#\	48ccc#\	.
48bb\JJJ	48dddn\JJJ	.
16ccc'\LL	48eee\LLL	.
.	48fff\	.
.	48eee\	.
16ffn'\ 16ggn'\	48ddd\	.
.	48eee\	.
.	48ddd\	.
16ee'\ 16gg'\JJ	48cccn\	.
.	48ddd\	.
.	48ccc\JJJ	.
=85	=85	=85
16ee'\ 16gg'\LL	48bb\LLL	.
.	48ddd\	.
.	48ccc\	.
16dd'\ 16gg'\	48aa#\	.
.	48ccc\	.
.	48bb\	.
16ee'\ 16gg'\JJ	48ccc\	.
.	48ddd\	.
.	48ccc\JJJ	.
16dd'\ 16gg'\LL	48bb\LLL	.
.	48ccc\	.
.	48bb\	.
16cc#'\ 16gg'\	48aa#\	.
.	48bb\	.
.	48aa#\	.
16dd'\ 16gg'\JJ	48bb\	.
.	48ccc\	.
.	48bb\JJJ	.
16ff'\ 16gg'\LL	48ccc#\LLL	.
.	48eee\	.
.	48ddd\	.
16cc#'\ 16gg'\	48eee\	.
.	48fff\	.
.	48eee\	.
16dd'\ 16gg'\JJ	48fff\	.
.	48ggg\	.
.	48fff\JJJ	.
=86	=86	=86
16ee'\LL	48gg\LLL	.
.	48ggg\	.
.	48gg\	.
16ee'\	48cccn\	.
.	48ggg\	.
.	48ccc\	.
16dd'\JJ	48bb\	.
.	48ggg\	.
.	48bb\JJJ	.
16ee\LL	48ccc\LLL	.
.	48ggg\	.
.	48ddd\	.
16ccc'\	48ddd#\	.
.	48ggg\	.
.	48eee\	.
16ddd'\JJ	48fff\	.
.	48ggg\	.
.	48fff\JJJ	.
16eee'\LL	48ggg#\LLL	.
.	48aaa\	.
.	48fff\	.
16eee'\	48ggg#\	.
.	48fff\	.
.	48ggg#\	.
16ee'\ 16bb-'\JJ	48ccc#\	.
.	48aaa\	.
.	48ggg#\JJJ	.
=87	=87	=87
16ee'\ 16bb-'\LL	48ccc#\LLL	.
.	48aaa\	.
.	48ggg\	.
16ee'\ 16gg'\	48ccc#\	.
.	48fffn\	.
.	48eee\	.
16ee'\ 16bb-'\JJ	48ccc#\	.
.	48aaa\	.
.	48ggg\JJJ	.
16ee'\ 16bb-'\LL	48ccc#\LLL	.
.	48aaa\	.
.	48ggg\	.
16ff'\ 16aa'\	48dddn\	.
.	48ggg\	.
.	48fff\	.
16ff'\JJ	48aa\	.
.	48eee\	.
.	48ddd\JJJ	.
16ff'\LL	48aa-\LLL	.
.	48eee\	.
.	48ddd\	.
16ff'\	48gg\	.
.	48eee\	.
.	48ddd\	.
16ee'\JJ	48gg\	.
.	48ddd\	.
.	48cccn\JJJ	.
=88	=88	=88
16ee'\LL	48gg\LLL	.
.	48ddd\	.
.	48ccc\	.
16dd'\	48ff\	.
.	48ccc\	.
.	48bb\	.
16ee'\JJ	48gg\	.
.	48ddd\	.
.	48ccc\JJJ	.
16ee'\LL	48gg\LLL	.
.	48ddd\	.
.	48ccc\	.
16ee'\	48gg\	.
.	48ddd\	.
.	48ccc#\	.
16ff'\JJ	48aan\	.
.	48eee\	.
.	48ddd\JJJ	.
16ff#'\LL	48aa\LLL	.
.	48eee\	.
.	48ddd\	.
16gg'\	48bb\	.
.	48eee\	.
.	48ddd\	.
16b'\ 16ffn'\JJ	48ccc#\	.
.	48ddd\	.
.	48gg\JJJ	.
=89	=89	=89
16b'\ 16ff'\LL	48aa\LLL	.
.	48ff#\	.
.	48gg\	.
16cc'\ 16ee'\	48aa\	.
.	48ff#\	.
.	48gg\	.
16dd'\ 16ff'\JJ	48aa\	.
.	48ff#\	.
.	48gg\JJJ	.
16dd'\ 16ff'\LL	48aa\LLL	.
.	48ff#\	.
.	48gg\	.
16cc'\ 16ee'\	48aa\	.
.	48ff#\	.
.	48gg\	.
16b'\ 16dd'\JJ	48aa\	.
.	48gg#\	.
.	48eee\JJJ	.
16a'/ 16cc'/LL	48bb\LLL	.
.	48aa\	.
.	48eee\	.
16g#'/ 16b'/JJ	48ccc\	.
.	48bb\	.
.	48eee\JJJ	.
*clefF4	*	*
48E/LLL	16r	pp
48EE/	.	.
48E/JJJ	.	.
=90	=90	=90
48EE/LLL	16r	.
48E/	.	.
48EE/	.	.
*	*clefF4	*clefF4
48E/	(16B\ [16c\LL	pp
48EE/	.	.
48E/	.	.
48EE/	16A\ 16c\JJ])	.
48E/	.	.
48EE/JJJ	.	.
48E/LLL	16r	.
48EE/	.	.
48E/	.	.
48EE/	(16B\ [16c\LL	.
48E/	.	.
48EE/	.	.
48E/	16A\) 16c\JJ]	.
48EE/	.	.
48E/JJJ	.	.
48EE/LLL	16r	.
48E/	.	.
48EE/	.	.
48E/	16B\ ([16c\LL	.
48EE/	.	.
48E/	.	.
48EE/	16A\ 16c\JJ])	.
48E/	.	.
48EE/JJJ	.	.
=91	=91	=91
48E/LLL	16r	.
48EE/	.	.
48E/	.	.
48EE/	(16A\ [16B\LL	.
48E/	.	.
48EE/	.	.
48E/	16G#\) 16B\JJ]	.
48EE/	.	.
48E/JJJ	.	.
48EE/LLL	16r	.
48E/	.	.
48EE/	.	.
48E/	(16A\ [16B\LL	.
48EE/	.	.
48E/	.	.
48EE/	16G#\) 16B\JJ]	.
48E/	.	.
48EE/JJJ	.	.
48E/LLL	16r	.
48EE/	.	.
48E/	.	.
48EE/	16A\ [16B\ [16e\LL	.
48E/	.	.
48EE/	.	.
48E/	16G#\ 16B\] 16e\JJ]	.
48EE/	.	.
48E/JJJ	.	.
=92	=92	=92
48EE/LLL	16r	.
48E/	.	.
48EE/	.	.
48E/	(16G#\ [16c\ [16e\LL	.
48EE/	.	.
48E/	.	.
48EE/	16A\) 16c\] 16e\JJ]	.
48E/	.	.
48EE/JJJ	.	.
48E/LLL	16r	.
48EE/	.	.
48E/	.	.
48EE/	(16G#\ [16c\ [16e\LL	.
48E/	.	.
48EE/	.	.
48E/	16A\) 16c\] 16e\JJ]	.
48EE/	.	.
48E/JJJ	.	.
48EE/LLL	16r	.
48E/	.	.
48EE/	.	.
48E/	16B\ (16d\LL	.
48EE/	.	.
48E/	.	.
48EE/	16A\ 16c\JJ)	.
48E/	.	.
48EE/JJJ	.	.
=93	=93	=93
48E/LLL	16r	.
48EE/	.	.
48E/	.	.
48EE/	[16D#\ [16F#\ [16A\ [16c\LL	.
48E/	.	.
48EE/	.	.
48E/	16D#\] 16F#\] 16A\] 16c\JJ]	.
48EE/	.	.
48E/JJJ	.	.
48EE/LLL	16r	.
48E/	.	.
48EE/	.	.
48E/	[16Dn\ (16Fn\ [16G#\ [16B\LL	.
48EE/	.	.
48E/	.	.
48EE/	16D\]) 16F\ 16G#\] 16B\JJ]	.
48E/	.	.
48EE/JJJ	.	.
48AA/LLL	16r	.
48AAA/	.	.
48AA/	.	.
48AAA/	[16E\ [16A\ [16c\LL	.
48AA/	.	.
48AAA/	.	.
48AA/	16E\] 16A\] 16c\JJ]	.
48AAA/	.	.
48AA/JJJ	.	.
=94	=94	=94
48GGGn/LLL	16r	.
48GGn/	.	.
48GGG/	.	.
48GG/	[16F\ (16c\ [16d\LL	.
48GGG/	.	.
48GG/	.	.
48GGG/	16F\] 16B\) 16d\JJ]	.
48GG/	.	.
48GGG/JJJ	.	.
48GG/LLL	16r	.
48GGG/	.	.
48GG/	.	.
48GGG/	(16C/ [16D/LL	.
48GG/	.	.
48GGG/	.	.
48GG/	16BB/) 16D/JJ]	.
48GGG/	.	.
48GG/JJJ	.	.
48GGG/LLL	16r	.
48GG/	.	.
48GGG/	.	.
48GG/	[16F\ (16c\ [16d\LL	.
48GGG/	.	.
48GG/	.	.
48GGG/	16F\] 16B\) 16d\JJ]	.
48GG/	.	.
48GGG/JJJ	.	.
=95	=95	=95
48GG/LLL	16r	.
48GGG/	.	.
48GG/	.	.
48GGG/	[16Gn\ (16d\ [16e\LL	.
48GG/	.	.
48GGG/	.	.
48GG/	16G\] 16c\) 16e\JJ]	.
48GGG/	.	.
48GG/JJJ	.	.
48GGG/LLL	16r	.
48GG/	.	.
48GGG/	.	.
48GG/	(16D\ [16E\LL	.
48GGG/	.	.
48GG/	.	.
48GGG/	16C\) 16E\JJ]	.
48GG/	.	.
48GGG/JJJ	.	.
48GG/LLL	16r	.
48GGG/	.	.
48GG/	.	.
48GGG/	16A-\ ([16B\ 16d\ [16f\LL	.
48GG/	.	.
48GGG/	.	.
48GG/	&(16G\&) 16B\] 16d\) 16f\JJ]	.
48GGG/	.	.
48GG/JJJ	.	.
=96	=96	=96
48GGG/LLL	16r	.
48GG/	.	.
48GGG/	.	.
48GG/	(16C/ [16D/LL	.
48GGG/	.	.
48GG/	.	.
48GGG/	16BB/) 16D/JJ]	.
48GG/	.	.
48GGG/JJJ	.	.
48GG/LLL	16r	.
48GGG/	.	.
48GG/	.	.
48GGG/	(16C\ [16D\ [16G\LL	.
48GG/	.	.
48GGG/	.	.
48GG/	16BB\ 16D\]) 16G\JJ]	.
48GGG/	.	.
48GG/JJJ	.	.
48GGG/LLL	16r	.
48GG/	.	.
48GGG/	.	.
*	*clefG2	*clefG2
48GG/	(16c/ 16d/ [16g/LL	.
48GGG/	.	.
48GG/	.	.
48GGG/	&(16B/&) 16d/) 16g/JJ]	.
48GG/	.	.
48GGG/JJJ	.	.
=97	=97	=97
*	*clefF4	*clefF4
48GG/LLL	16r	.
48GGG/	.	.
48GG/	.	.
48GGG/	16BB\ 16D\ (16G\LL	.
48GG/	.	.
48GGG/	.	.
48GG/	&(16C\&) 16E\JJ)	.
48CC/	.	.
48GG/JJJ	.	.
48CC/LLL	16r	.
48GG/	.	.
48CC/	.	.
48GG/	16c\ (16e\LL	.
48CC/	.	.
48GG/	.	.
48CC/	16E\JJ)	.
48GG/	.	.
48CC/JJJ	.	.
48GG#/LLL	16r	.
48BBB/	.	.
48GG#/	.	.
*	*clefG2	*clefG2
48BBB/	(16dd/ 16ee/LL	.
48GG#/	.	.
48BBB/	.	.
48GG#/	16d/) 16e/JJ	.
48BBB/	.	.
48GG#/JJJ	.	.
=98	=98	=98
16AAA'/ 16AA'/	16e'/ 16cc'/ 16ee'/	.
*clefG2	*	*
16ee'\LL	48ccc\LLL	pp
.	48ddd\	.
.	48bb\	.
16ee'\JJ	48ccc\	.
.	48bb\	.
.	48aa\JJJ	.
16ee'\LL	48gg#\LLL	.
.	48aa\	.
.	48bb\	.
16ee'\	48aa\	.
.	48bb\	.
.	48ccc\	.
16ee'\JJ	48bb\	.
.	48ccc\	.
.	48ddd\JJJ	.
16ee'\LL	48ccc\LLL	.
.	48ddd\	.
.	48ccc\	.
16ee'\	48bb\	.
.	48ccc\	.
.	48ddd\	.
16ee'\JJ	48ccc\	.
.	48bb\	.
.	48aa\JJJ	.
=99	=99	=99
16ee'\LL	48bb\LLL	.
.	48ccc\	.
.	48ddd\	.
16ee'\	48ccc\	.
.	48bb\	.
.	48aa\	.
16ee'\JJ	48gg#\	.
.	48aa\	.
.	48bb\JJJ	.
16ee'\LL	48gg#\LLL	.
.	48aa\	.
.	48bb\	.
16ee'\	48aa\	.
.	48bb\	.
.	48ccc\	.
16ee'\JJ	48bb\	.
.	48ccc\	.
.	48ddd\JJJ	.
16ee'\LL	48bb\LLL	.
.	48ccc\	.
.	48ddd\	.
16ee'\	48fff\	.
.	48eee\	.
.	48ddd\	.
16ee'\JJ	48ccc\	.
.	48bb\	.
.	48eee\JJJ	.
=100	=100	=100
16ee'\LL	48aa\LLL	pp
.	48gg#\	.
.	48eee\	.
16ee'\	48bb\	.
.	48aa\	.
.	48eee\	.
16ee'\JJ	48ccc\	.
.	48bb\	.
.	48eee\JJJ	.
16ee'\LL	48ddd\LLL	.
.	48ccc\	.
.	48eee\	.
16ee'\	48ccc\	.
.	48bb\	.
.	48eee\	.
16ee'\JJ	48ddd\	.
.	48ccc\	.
.	48eee\JJJ	.
16ee'\LL	48ddd\LLL	.
.	48ccc\	.
.	48eee\	.
16ee'\	48ccc\	.
.	48bb\	.
.	48ddd\	.
16ee'\JJ	48bb\	.
.	48aa\	.
.	48ccc\JJJ	.
=101	=101	=101
16ee'\LL	48bb\LLL	.
.	48aa\	.
.	48ccc\	.
16ee'\	48bb\	.
.	48ddd\	.
.	48ccc\	.
16ee'\JJ	48bb\	.
.	48aa\	.
.	48ccc\JJJ	.
16ee'\LL	48aa\LLL	.
.	48gg#\	.
.	48bb\	.
16ee'\	48aa\	.
.	48ccc\	.
.	48bb\	.
16ee'\JJ	48aa\	.
.	48gg#\	.
.	48bb\JJJ	.
16a'\LL	48ccc\LLL	.
.	48ddd\	.
.	48ccc\	.
16aa'\	48bb\	.
.	48ccc\	.
.	48bb\	.
16aa-'\JJ	48ccc\	.
.	48ddd\	.
.	48ccc\JJJ	.
=102	=102	=102
16gg'\LL	48ddd\LLL	.
.	48eee\	.
.	48ccc#\	.
16gg'\	48ddd\	.
.	48bb\	.
.	48cccn\	.
16gg'\JJ	48aa#\	.
.	48bb\	.
.	48aan\JJJ	.
16gg'\LL	48bb\LLL	.
.	48aa\	.
.	48ccc\	.
16gg'\	48bb\	.
.	48ddd\	.
.	48ccc\	.
16gg'\JJ	48ddd\	.
.	48ccc#\	.
.	48eee-\JJJ	.
16gg'\LL	48ddd\LLL	.
.	48eeen\	.
.	48ddd\	.
16gg'\	48fff\	.
.	48ddd\	.
.	48eee\	.
16gg'\JJ	48ddd\	.
.	48fff\	.
.	48ddd\JJJ	.
=103	=103	=103
16gg'\LL	48eee\LLL	.
.	48fff\	.
.	48ddd\	.
16gg'\	48eee#\	.
.	48ccc#\	.
.	48dddn\	.
16gg'\JJ	48bb\	.
.	48ddd\	.
.	48cccn\JJJ	.
16gg'\LL	48ddd\LLL	.
.	48eee#\	.
.	48ddd\	.
16gg\	48eee#\	.
.	48fff\	.
.	48eee#\	.
16gg'\JJ	48fff\	.
.	48ddd#\	.
.	48eee#\JJJ	.
16aan'\LL	48fff\LLL	.
.	48ggg\	.
.	48eee#\	.
16gg#'\	48fff\	.
.	48eee#\	.
.	48fff\	.
16aa'\JJ	48eee#\	.
.	48ggg\	.
.	48fff\JJJ	.
=104	=104	=104
16bb-'\LL	48dddn\LLL	.
.	48fff\	.
.	48ddd\	.
16bb-'\	48fff\	.
.	48ddd\	.
.	48fff\	.
16bb-'\JJ	48ddd\	.
.	48fff\	.
.	48ddd\JJJ	.
16bb-'\LL	48fff\LLL	.
.	48ddd\	.
.	48fff\	.
16bb-'\	48ddd\	.
.	48fff#\	.
.	48ddd\	.
16bb-'\JJ	48fff#\	.
.	48ddd\	.
.	48fff#\JJJ	.
16bbn\LL	48ddd\LLL	.
.	48fff#\	.
.	48ddd\	.
16bb'\	48ggg\	.
.	48ddd\	.
.	48ggg\	.
16bb'\JJ	48ddd\	.
.	48ggg\	.
.	48ddd\JJJ	.
=105	=105	=105
16bb\LL	48ggg\LLL	.
.	48ddd\	.
.	48ggg\	.
16gg\ 16bb\	48fff\	.
.	48ggg\	.
.	48ddd\	.
16ccc\JJ	48fff\	.
.	48ddd\	.
.	48eee\JJJ	.
16ccc\LL	48ggg\LLL	.
.	48fff\	.
.	48eee\	.
16cc\ 16ee\ 16gg\	48fff\	.
.	48eee\	.
.	48ddd\	.
16cc\ 16ee\ 16gg\JJ	48fff\	.
.	48eee\	.
.	48ccc\JJJ	.
16cc\ 16ee\ 16gg\LL	48ggg\LLL	.
.	48fff\	.
.	48eee\	.
16cc\ 16ee\ 16gg\	48fff\	.
.	48eee\	.
.	48ddd\	.
16cc\ 16ee\ 16gg\JJ	48fff\	.
.	48eee\	.
.	48ccc\JJJ	.
=106	=106	=106
16cc\ 16dd\ 16ff\ 16gg\LL	48fff\LLL	.
.	48eee\	.
.	48ddd\	.
16cc\ 16dd\ 16ff\ 16gg\	48eee\	.
.	48ddd\	.
.	48bb\	.
16cc\ 16dd\ 16ff\ 16gg\JJ	48ddd\	.
.	48ccc\	.
.	48bb\JJJ	.
16cc\ 16dd\ 16ff\ 16gg\LL	48fff\LLL	.
.	48eee\	.
.	48ddd\	.
16cc\ 16dd\ 16ff\ 16gg\	48eee\	.
.	48ddd\	.
.	48bb\	.
16cc\ 16dd\ 16ff\ 16gg\JJ	48ddd\	.
.	48ccc\	.
.	48bb\JJJ	.
16cc\ 16dd\ 16ff\ 16gg\LL	48fff\LLL	.
.	48eee\	.
.	48ddd\	.
16cc\ 16dd\ 16ff\ 16gg\	48eee\	.
.	48ddd\	.
.	48bb\	.
16cc\ 16dd\ 16ff\ 16gg\JJ	48ddd\	.
.	48ccc\	.
.	48bb\JJJ	.
=107	=107	=107
16cc\ 16ee\ 16gg\LL	48ggg\LLL	.
.	48fff\	.
.	48eee\	.
16cc\ 16ee\ 16gg\	48fff\	.
.	48eee\	.
.	48ddd\	.
16cc\ 16ee\ 16gg\JJ	48fff\	.
.	48eee\	.
.	48ccc\JJJ	.
48gg\LLL	8.r	.
48ff\	.	.
48ee\	.	.
48ff\	.	.
48ee\	.	.
48dd\	.	.
48ff\	.	.
48ee\	.	.
48cc\JJJ	.	.
16cc/LL	48gg\LLL	.
.	48ff\	.
.	48ee\	.
16c/ 16e/ 16g/	48ff\	.
.	48ee\	.
.	48dd\	.
16c/ 16e/ 16g/JJ	48ff\	.
.	48ee\	.
.	48cc\JJJ	.
=108	=108	=108
16c/ 16d/ 16f/ 16g/LL	48ff\LLL	.
.	48ee\	.
.	48dd\	.
16c/ 16d/ 16f/ 16g/	48ee\	.
.	48dd\	.
.	48b\	.
16c/ 16d/ 16f/ 16g/JJ	48dd\	.
.	48cc\	.
.	48b\JJJ	.
16c/ 16d/ 16f/ 16g/LL	48ff\LLL	.
.	48ee\	.
.	48dd\	.
16c/ 16d/ 16f/ 16g/	48ee\	.
.	48dd\	.
.	48b\	.
16c/ 16d/ 16f/ 16g/JJ	48dd\	.
.	48cc\	.
.	48b\JJJ	.
16c/ 16d/ 16f/ 16g/LL	48ff\LLL	.
.	48ee\	.
.	48dd\	.
16c/ 16d/ 16f/ 16g/	48ee\	.
.	48dd\	.
.	48b\	.
16c/ 16d/ 16f/ 16g/JJ	48dd\	.
.	48cc\	.
.	48b\JJJ	.
*clefF4	*	*
=109	=109	=109
48C\LLL	8.r	.
48c\	.	.
48e\	.	.
48E\	.	.
48c\	.	.
48e\	.	.
48G\	.	.
48c\	.	.
48e\JJJ	.	.
48B\LLL	8.cc\ 8.ee\L	<
48c\	.	.
48e\	.	.
48G\	.	.
48c\	.	.
48e\	.	.
48F\	.	.
48c\	.	.
48e\JJJ	.	.
48E\LLL	[8.cc\ [8.ee\J	.
48c\	.	.
48e\	.	.
48D\	.	.
48c\	.	.
48e\	.	.
48C\	.	.
48c\	.	.
48e\JJJ	.	.
=110	=110	=110
48AA\LLL	8.cc\] 8.ee\]	.
48c\	.	.
48e\	.	.
48C\	.	.
48A\	.	.
48c\	.	.
48E\	.	.
48A\	.	.
48c\JJJ	.	.
48G#\LLL	8.ee\ 8.ccc\ 8.eee\L	.
48A\	.	.
48c\	.	.
48E\	.	.
48A\	.	.
48c\	.	.
48D\	.	.
48A\	.	.
48c\JJJ	.	.
48C\LLL	8.ee\ 8.ccc\ 8.eee\J	.
48A\	.	.
48c\	.	.
48BB\	.	.
48A\	.	.
48c\	.	.
48AA\	.	.
48A\	.	.
48c\JJJ	.	.
=111	=111	=111
48GGn\LLL	8.ee\ 8.ccc\ 8.eee\L	.
48Gn\	.	.
48c\	.	.
48C\	.	.
48G\	.	.
48c\	.	.
48E\	.	.
48G\	.	.
48c\JJJ	.	.
48GG\LLL	8.ff\ 8.ddd\ 8.fff\	>
48G\	.	.
48B\	.	.
48BB\	.	.
48G\	.	.
48B\	.	.
48D\	.	.
48G\	.	.
48B\JJJ	.	.
48GG\LLL	8dd\ 8bb\ 8ddd\J	.
48D\	.	.
48G\	.	.
48GG\	.	.
48F\	.	.
48G\	.	.
*	*clefF4	*clefF4
48GG\	48GGG/LLL	.
48AA\	48AAA/	.
48BB\JJJ	48BBB/JJJ	.
=112	=112	=112
16r	48CC/LLL	.
.	48EE/	.
.	48GG/JJJ	<
48C\LLL	16r	.
48E\	.	.
48G\JJJ	.	.
*	*clefG2	*clefG2
16r	48c/LLL	.
.	48e/	.
.	48g/JJJ	.
8.r	48cc\LLL	.
.	48ee\	.
.	48gg\	.
.	48ee\	.
.	48gg\	.
.	48ccc\J	.
.	[16eee\JJ	.
8.r	48eee\LLL]	.
.	48bb\	.
.	48ccc\	.
.	48ddd\	.
.	48bb\	.
.	48ccc\	.
.	48eee\	.
.	48bb\	.
.	48ccc\JJJ	.
=113	=113	=113
48AAA/LLL	16r	.
48CC/	.	.
48EE/JJJ	.	.
*	*clefF4	*clefF4
16r	48AA/LLL	.
.	48C/	.
.	48E/JJJ	.
48A\LLL	16r	.
48c\	.	.
48e\JJJ	.	.
*	*clefG2	*clefG2
8.r	48a\LLL	.
.	48cc\	.
.	48ee\	.
.	48cc\	.
.	48ee\	.
.	48aa\	.
.	64ee\L	.
.	64aa\	.
.	64ccc\	.
.	[64eee\JJJJ	.
8.r	48eee\LLL]	.
.	48bb\	.
.	48ccc\	.
.	48ee\	.
.	48bb\	.
.	48ccc\	.
.	48eee\	.
.	48bb\	.
.	48ccc\JJJ	.
=114	=114	=114
48GGG/LLL	16r	.
48CC/	.	.
48EE/	.	.
48GG/	48eee\LLL	.
48C/	48ccc\	.
48E/J	48ee\	.
16G/JJ	48eee\	.
.	48ccc#\	.
.	48ee\JJJ	.
48GGG/LLL	16r	.
48BBB/	.	.
48DD/	.	.
48GG/	48fff\LLL	.
48BB/	48ddd\	.
48D/J	48ff\	.
16G/JJ	48fff\	.
.	48ddd\	.
.	48ff\JJJ	.
8.r	48eee\LLL	.
.	48ccc#\	.
.	48ee\	.
.	48fff\	.
.	48ddd\	.
.	48ff\	.
.	48ddd\	.
.	48bb\	.
.	48dd\JJJ	.
=115	=115	=115
4.r	[4.dd\	f
(8CC/ 8C/L	8.dd\_	f
16GGG/) 16GG/Jk	.	.
=116	=116	=116
*	*^	*
4.GGG/ 4.GG/	4.r	4.dd\_	.
*clefG2	*	*	*
(8cc\L	(8aa/L	8.dd\_	p
16b\Jk)	16gg/Jk)	.	.
=117	=117	=117	=117
4.b\	4.gg/	8.dd\]	.
.	.	[4.dd\	.
(8cc\L	(8aa-/L	.	.
16b\Jk)	16gg/Jk)	.	.
=118	=118	=118	=118
8.b\L	8.gg/L	4.dd\_	.
8.b\	8.gg/	.	.
8.b\J	8.gg/J	8.dd\_	.
=119	=119	=119	=119
(8.b\L	(8.gg/L	4.dd\_	p
8.b-\J)	8.aa-/)	.	.
*clefF4	*	*	*
(8FF/ 8F/L	8.aa-/J	8.dd\_	.
16BBB-/) 16BB-/Jk	.	.	.
=120	=120	=120	=120
4.BBB-/ 4.BB-/	8.aa-/L	4.dd\_	.
.	8.aa-/	.	.
*clefG2	*	*	*
(8f/L	8.aa-/J	8.dd\]	.
16B-/Jk)	.	.	.
=121	=121	=121	=121
*^	*	*	*
[4.f/	8.B-\L	[4.aa-/	[4.dd\	<
.	8.B-\	.	.	.
8.f/_	8.B-\J	8.aa-/_	8.dd\_	.
=122	=122	=122	=122	=122
4.f/_	8.B-\L	4.aa-/_	4.dd\_	>
.	8.B-\	.	.	.
8.f/_	8.B-\J	8.aa-/_	8.dd\_	.
=123	=123	=123	=123	=123
8.f/]	8.B-\	4.aa-/]	8.dd\L]	p
8.r	4.r	.	8.aan\	.
8.r	.	8.r	[8.bb-\J	.
*v	*v	*	*	*
*	*v	*v	*
=124	=124	=124
8.r	8.bb-\L]	.
8.r	8.bbn\	.
8.r	[8.ccc\J	.
*clefF4	*	*
=125	=125	=125
*k[b-e-a-]	*k[b-e-a-]	*k[b-e-a-]
8.r	8.ccc\L]	.
8.r	8.ccc#\	.
[8.BBB-/	[8.ddd\J	>
=126	=126	=126
4.BBB-/_	4.ddd\_	>
(8BBB-/L]	8.ddd\]	.
16AAA-/Jk)	.	.
=127	=127	=127
*	*8va	*
4.GGG/	(8.eee-\L	p
.	8.ggg\	.
8.GGG-/	[8.bbb-\J	.
=128	=128	=128
*	*^	*
&([8.FFF/&)	4.r	8bbb-\L]	.
.	.	16aaan\Jk	.
(8FFF/L]	.	16aaa-\LL	.
.	.	16aa-\	.
*	*X8va	*X8va	*
16GGGn/k	.	16b-\ 16gg\JJ)	.
8AAA-/	(16gg/LL	8cc\L	.
.	16ff/)	.	.
16AAAn/Jk)	16ee-/JJ	16cc\Jk	.
=129	=129	=129	=129
8BBB-/	16ee-/LK	16f\ 16a-\LL	p
.	8dd/J	16f\ 16a-\	.
16r	.	16f\ 16a-\JJ	.
8.r	16r	16f\ 16a-\LL	.
.	8ee-/	16f\ 16a-\	.
.	.	16f\ 16a-\JJ	.
8.r	16r	16f\ 16a-\LL	.
.	16ff/LL	16f\ 16a-\	.
.	16b-/JJ	16a-\JJ	.
=130	=130	=130	=130
16r	8b-/	16g\LL	p
8EE-/ 8E-/	.	16g\	.
.	16r	16g\JJ	.
16r	8.r	16g'\LL	.
8FF/ 8F/	.	16g\	.
.	.	16g\JJ	.
16r	8.r	16e-\ 16g\LL	.
(16GG/ 16G/LL	.	16e-\ 16g\	.
16CC/ 16C/JJ	.	16e-\ 16g\JJ	.
=131	=131	=131	=131
8BBBn'/) 8BBn'/	16r	16f\ 16g\LL	.
.	8bn/	16f\ 16g\	.
16r	.	16f\ 16g\JJ	.
8.r	16r	16f\ 16g\LL	.
.	8cc/	16f\ 16g\	.
.	.	16f\ 16g\JJ	.
8.r	16r	16f\ 16g\LL	.
.	16dd/LL	16f\ 16g\	.
.	16g/JJ	&(16f\JJ&)	.
=132	=132	=132	=132
16r	8g/	16e-\LL	pp
8CC/ 8C/	.	16e-\	.
.	16r	16e-\JJ	.
16r	8.r	16e-\LL	.
8DD-/ 8D-/	.	16e-\	.
.	.	16e-\JJ	.
16r	8.r	16c\ 16e-\LL	.
(16EE-/ 16E-/LL	.	16c\ 16e-\	.
16AAA-/ 16AA-/JJ	.	16c\ 16e-\JJ	.
=133	=133	=133	=133
8GGG'/) 8GG'/	16r	16d-\ 16e-\LL	.
.	8g/	16d-\ 16e-\	.
16r	.	16d-\ 16e-\JJ	.
8.r	16r	16d-\ 16e-\LL	.
.	8a-/	16d-\ 16e-\	.
.	.	16d-\ 16e-\JJ	.
8.r	16r	16d-\ 16e-\LL	.
.	16b-/LL	16d-\ 16e-\	.
.	16e-/JJ	&(16d-\JJ&)	.
=134	=134	=134	=134
16r	8e-/L	16d-\LL	pp
8AA-\ 8A-\	.	16c\	.
.	16e-/Jk	16c'\JJ	.
16r	16e-/LL	16c\LL	.
8FF#\ 8F#\	16dn/ 16an/	16c\	.
.	16d/JJ	16c\JJ	.
16r	8d/L	16c\LL	.
8GG\ 8G\	.	16Bn\	.
.	16d/Jk	16B\JJ	.
*clefG2	*	*	*
=135	=135	=135	=135
16r	16d-/LL	16B-\LL	.
8een\	16d-/ 16g/	16B-\	.
.	16c/JJ	16B-\JJ	.
16r	8c/L	16B-\LL	.
8ffn\	.	16An\	.
.	16c/Jk	16A\JJ	.
16r	16A-/ 16c-/LL	8.r	.
8ddn\	16A-/ 16B-/ 16f/	.	.
.	16A-/ 16B-/JJ	.	.
*clefF4	*	*	*
*	*v	*v	*
*	*clefF4	*clefF4
=136	=136	=136
*	*^	*
16r	8B-/L	16A-\LL	.
8EE-/ 8E-/	.	16G\	.
.	16B-/Jk	16G\JJ	.
16r	16B-/LL	16G\LL	.
8CC/ 8C/	(16e-/	16G\	.
.	16An/JJ	16G\JJ)	.
16r	8A/L	16G\LL	.
(16DD/ 16D/LL	.	16F#\	.
16CC/) 16C/JJ	16A/ 16d/Jk	16F#\JJ	.
=137	=137	=137	=137
16BBBn/ 16BBn/	16d/LL	16Fn\ 16A-\LL	.
*clefG2	*	*	*
8bn\	16d/	16F\ 16G\	.
.	16G/JJ	16F\JJ	.
16r	16G/LL	16F\LL	.
8cc\	(16G/	16E-\	.
.	16G/ 16c/JJ)	16E-\JJ	.
16r	16c/LL	16E-\ 16G-\LL	.
8an/	(16c/	16E-\ 16F\	.
.	16F/JJ	16E-\JJ)	.
*clefF4	*	*	*
=138	=138	=138	=138
16r	16F/LL	16E-\LL	.
8BBB-/ 8BB-/	16F/	16D-\	.
.	16B-/JJ	16D-\ 16F\JJ	.
16r	16B-/LL	16D-\ 16E-\LL	.
8GGG/ 8GG/	16B-/	16D-\ 16E-\	.
.	16E-/JJ	16D-\JJ	<
48AAA-/LLL	16E-/LL	16C\LL	.
48AA-/	.	.	.
48AAA-/	.	.	.
48AA-/	(16E-/	16C\	.
48AAA-/	.	.	.
48AA-/	.	.	.
48AAA-/	16c/JJ)	16E-\JJ	.
48AA-/	.	.	.
48AAA-/JJJ	.	.	.
*	*v	*v	*
*	*clefG2	*clefG2
=139	=139	=139
*	*^	*
48FF#/LLL	16e-/LL	16c\LL	.
48FFF#/	.	.	.
48FF#/	.	.	.
48FFF#/	(16e-/	16c\	.
48FF#/	.	.	.
48FFF#/	.	.	.
48FF#/	16cc/JJ)	16e-\JJ	.
48FFF#/	.	.	.
48FF#/JJJ	.	.	.
48GGG/LLL	16cc/LL	16d\LL	.
48GG/	.	.	.
48GGG/	.	.	.
48GG/	16cc/	16d\	.
48GGG/	.	.	.
48GG/	.	.	.
48GGG/	16bn/JJ	16d\JJ	.
48GG/	.	.	.
48GGG/JJJ	.	.	.
48GG\LLL	8cc/L	16c\ 16e-\LL	.
48CC\	.	.	.
48EE-\	.	.	.
48GG\	.	16c\ 16e-\	.
48C\	.	.	.
48E-\	.	.	.
48C\	16g/Jk	16c\ 16e-\JJ	.
48E-\	.	.	.
48G\JJJ	.	.	.
=140	=140	=140	=140
48C\LLL	4.g/	16e-\LL	.
48E-\	.	.	.
48G\	.	.	.
48BB-\	.	16d\	.
48D\	.	.	.
48G\	.	.	.
48C\	.	16e-\JJ	.
48E-\	.	.	.
48G\JJJ	.	.	.
48D\LLL	.	16f\LL	.
48F\	.	.	.
48G\	.	.	.
48C\	.	16e-\	.
48E-\	.	.	.
48G\	.	.	.
48D\	.	16f\JJ	.
48F\	.	.	.
48G\JJJ	.	.	.
48BB-\LLL	(8dd/L	16d\LL	.
48D\	.	.	.
48G\	.	.	.
48AA-\	.	16c\	.
48C\	.	.	.
48G\	.	.	.
48BB-\	16g/Jk	16d\ 16f\JJ)	.
48D\	.	.	.
48G\JJJ	.	.	.
*	*v	*v	*
=141	=141	=141
*k[]	*k[]	*k[]
*	*^	*
48BB\LLL	4.g/	16d\LL	.
48D\	.	.	.
48G\	.	.	.
48C\	.	16e\	.
48E\	.	.	.
48G\	.	.	.
48BB\	.	16d\JJ	.
48D\	.	.	.
48G\JJJ	.	.	.
48C\LLL	.	16e\LL	.
48E\	.	.	.
48G\	.	.	.
48D\	.	16f\	.
48F\	.	.	.
48G\	.	.	.
48C\	.	16e\JJ	.
48E\	.	.	.
48G\JJJ	.	.	.
48D\LLL	8.g/	16f\LL	.
48F\	.	.	.
48G\	.	.	.
48C#\	.	16e\	.
48E\	.	.	.
48G\	.	.	.
48D\	.	16f\JJ	.
48F\	.	.	.
48G\JJJ	.	.	.
=142	=142	=142	=142
48E\LLL	(8.g/L	16c\LL	.
48G\	.	.	.
48E\	.	.	.
48G\	.	16B\	.
48E\	.	.	.
48G\	.	.	.
48E\	.	16c\JJ	.
48G\	.	.	.
48E\JJJ	.	.	.
48Cn\LLL	8.ee/	16e\LL	.
48G\	.	.	.
48C\	.	.	.
48G\	.	16d\	.
48C\	.	.	.
48G\	.	.	.
48C\	.	16e\JJ	.
48G\	.	.	.
48C\JJJ	.	.	.
48E\LLL	8.cc/J)	16g\LL	.
48G\	.	.	.
48E\	.	.	.
48G\	.	16f\	.
48D\	.	.	.
48G\	.	.	.
48C\	.	16e\JJ	.
48G\	.	.	.
48C\JJJ	.	.	.
=143	=143	=143	=143
48GG\LLL	(8.cc/L	16e\LL	.
48F#\	.	.	.
48G\	.	.	.
48FF#\	.	16d#\	.
48F#\	.	.	.
48G\	.	.	.
48GG\	.	16e\JJ	.
48F#\	.	.	.
48G\JJJ	.	.	.
48GG\LLL	8.b/)	16dn\LL	.
48F#\	.	.	.
48G\	.	.	.
48FF#\	.	16d\	.
48F#\	.	.	.
48G\	.	.	.
48GG\	.	16d\JJ	.
48F#\	.	.	.
48G\JJJ	.	.	.
48GG\LLL	8.b/J	16d\ 16g\LL	.
48F#\	.	.	.
48G\	.	.	.
48FF#\	.	16d\ 16g\	.
48F#\	.	.	.
48G\	.	.	.
48FFn\	.	16d\ 16g\JJ	.
48F#\	.	.	.
48G\JJJ	.	.	.
=144	=144	=144	=144
48EE\LLL	(8.cc/L	16g\LL	f
48C\	.	.	.
48G\	.	.	.
48DD#\	.	16f#\	.
48C\	.	.	.
48G\	.	.	.
48EE\	.	16g\JJ	.
48C\	.	.	.
48G\JJJ	.	.	.
48C\LLL	8.ee/	16e\LL	.
48E\	.	.	.
48G\	.	.	.
48BB\	.	16g\	.
48Dn\	.	.	.
48G\	.	.	.
48C\	.	16g\JJ	.
48E\	.	.	.
48G\JJJ	.	.	.
48BB-\LLL	8.gg/J)	16dd\LL	.
48D\	.	.	.
48G\	.	.	.
48AA\	.	16cc#\	.
48E\	.	.	.
48G\	.	.	.
48BB-\	.	16dd\JJ	.
48D\	.	.	.
48G\JJJ	.	.	.
=145	=145	=145	=145
48AA\LLL	(8.gg/L	16cc#\LL	.
48E\	.	.	.
48G\	.	.	.
48A\	.	16b\	.
48G\	.	.	.
48E\	.	.	.
48AA\	.	16cc#\JJ	.
48E\	.	.	.
48G\JJJ	.	.	.
48AA\LLL	8.ff/J	16dd\LL	.
48D\	.	.	.
48F\	.	.	.
48A\	.	16cc#\	.
48F\	.	.	.
48D\	.	.	.
48AA\	.	16dd\JJ	.
48D\	.	.	.
48F\JJJ	.	.	.
48AA\LLL	8dd/L	16fn\LL	.
48D\	.	.	.
48F\	.	.	.
48AA\	.	16f\	.
48D\	.	.	.
48F\	.	.	.
48AA-\	16ccn/Jk)	16f#\JJ	.
48D\	.	.	.
48F#\JJJ	.	.	.
=146	=146	=146	=146
48GG\LLL	(8.b/L	16g\LL	p
48D\	.	.	.
48G\	.	.	.
48GG\	.	16a\	.
48D\	.	.	.
48G\	.	.	.
48GG\	.	16g\JJ	.
48D\	.	.	.
48G\JJJ	.	.	.
48GG\LLL	8.cc/J	16f#\LL	.
48D\	.	.	.
48A\	.	.	.
48GG\	.	16g\	.
48D\	.	.	.
48A\	.	.	.
48GG\	.	16f#\JJ	.
48D\	.	.	.
48A\JJJ	.	.	.
48GG\LLL	8dd/L	16fn\LL	.
48G\	.	.	.
48Bn\	.	.	.
48AA\	.	16f\	.
48G\	.	.	.
48c\	.	.	.
48BBn\	16g/Jk)	16f\JJ	.
48G\	.	.	.
48d\JJJ	.	.	.
=147	=147	=147	=147
48BB\LLL	[8.g/	16d\ 16f\LL	.
48G\	.	.	.
48B\	.	.	.
48C\	.	16c\ 16e\	.
48E\	.	.	.
48G\	.	.	.
48D\	.	16B\ 16f\JJ	.
48F\	.	.	.
48G\JJJ	.	.	.
48D\LLL	8g/L]	16f\LL	.
48F\	.	.	.
48G\	.	.	.
48C\	.	16c\ 16e\	.
48E\	.	.	.
48G\	.	.	.
48BB\	16e/Jk	16d\JJ	.
48E\	.	.	.
48G#\JJJ	.	.	.
48BB\LLL	16e/LL	(16d\LL	p
48E\	.	.	.
48G#\	.	.	.
48AA\	16e/)	16c\	.
48E\	.	.	.
48A\	.	.	.
48GG#\	16e/JJ	16B\JJ	.
48E\	.	.	.
48G#\JJJ	.	.	.
=148	=148	=148	=148
48AA\LLL	4.cc/	16c\ 16e\LL	.
48E\	.	.	.
48A\	.	.	.
48GG#\	.	16e\	<
48E\	.	.	.
48G#\	.	.	.
48AA\	.	16e\JJ	.
48E\	.	.	.
48A\JJJ	.	.	.
48AA\LLL	.	16e\LL	.
48E\	.	.	.
48A\	.	.	.
48GG#\	.	16e\	.
48E\	.	.	.
48G#\	.	.	.
48AA\	.	16e\JJ	.
48E\	.	.	.
48A\JJJ	.	.	.
48AA\LLL	(8cc/L	16e\LL	.
48E\	.	.	.
48A\	.	.	.
48AA\	.	16e\	.
48E\	.	.	.
48A\	.	.	.
48GG#\	16b/Jk)	16e\JJ	.
48E\	.	.	.
48B\JJJ	.	.	.
=149	=149	=149	=149
48GG#\LLL	4.b/	16e\LL	.
48E\	.	.	.
48B\	.	.	.
48AA\	.	16e\	.
48E\	.	.	.
48B\	.	.	.
48GG#\	.	16e\JJ	.
48E\	.	.	.
48B\JJJ	.	.	.
48GG#\LLL	.	16e\LL	.
48E\	.	.	.
48B\	.	.	.
48AA\	.	16e\	.
48E\	.	.	.
48B\	.	.	.
48GG#\	.	16e\JJ	.
48E\	.	.	.
48B\JJJ	.	.	.
48GG#\LLL	(8b/L	16e\LL	.
48E\	.	.	.
48B\	.	.	.
48AA\	.	16e\	.
48E\	.	.	.
48B\	.	.	.
48GG#\	16ee/Jk)	16e\ 16b\JJ	.
48E\	.	.	.
48B\JJJ	.	.	.
=150	=150	=150	=150
48GG#\LLL	8.ee/L	16e\ 16b\LL	.
48E\	.	.	.
48B\	.	.	.
48AA\	.	16e\ 16b\	.
48E\	.	.	.
48B\	.	.	.
48GG#\	.	16e\ 16b\JJ	.
48E\	.	.	.
48B\JJJ	.	.	.
48AA\LLL	8.ee/J	16e\ 16cc\LL	.
48E\	.	.	.
48c\	.	.	.
48BB\	.	16e\ 16cc\	.
48E\	.	.	.
48c\	.	.	.
48AA\	.	16e\ 16cc\JJ	.
48E\	.	.	.
48c\JJJ	.	.	.
48FF\LLL	(8dd/L	16b\LL	.
48F\	.	.	.
48FF\	.	.	.
48F\	.	16g#\	.
48FF\	.	.	.
48F\	.	.	.
48DD#\	16cc/Jk)	16a\JJ	.
48D#\	.	.	.
48DD#\JJJ	.	.	.
=151	=151	=151	=151
48EE/LLL	8.cc/L	16e\ 16a\LL	.
48D#/	.	.	.
48E/	.	.	.
48DD#/	.	16e\ 16a\	.
48D#/	.	.	.
48E/	.	.	.
48EE/	.	16e\ 16a\JJ	.
48D#/	.	.	.
48E/JJJ	.	.	.
48EE/LLL	8.b/	16e\ 16g#\LL	.
48D#/	.	.	.
48E/	.	.	.
48DD#/	.	16e\ 16g#\	.
48D#/	.	.	.
48E/	.	.	.
48EE/	.	16e\ 16g#\JJ	.
48D#/	.	.	.
48E/JJJ	.	.	.
48AAA/LLL	8.cc/J	16e\ 16a\LL	p
48GG#/	.	.	.
48AA/	.	.	.
48GGG#/	.	16e\ 16a\	.
48GG#/	.	.	.
48AA/	.	.	.
48AAA/	.	16e\ 16a\JJ	.
48GG#/	.	.	.
48AA/JJJ	.	.	.
=152	=152	=152	=152
48GGGn/LLL	4.dd/	16gn\ 16b\LL	.
48FF#/	.	.	.
48GG/	.	.	.
48FFF#/	.	16g\ 16b\	.
48FF#/	.	.	.
48GG/	.	.	.
48GGG/	.	16g\ 16b\JJ	.
48FF#/	.	.	.
48GG/JJJ	.	.	.
48GGG/LLL	.	16g\ 16b\LL	.
48FF#/	.	.	.
48GG/	.	.	.
48FFF#/	.	16g\ 16b\	.
48FF#/	.	.	.
48GG/	.	.	.
48GGG/	.	16g\ 16b\JJ	.
48FF#/	.	.	.
48GG/JJJ	.	.	.
48GGG/LLL	8.dd/	16fn\ 16b\LL	.
48FF#/	.	.	.
48GG/	.	.	.
48FFF#/	.	16f\ 16b\	.
48FF#/	.	.	.
48GG/	.	.	.
48GGG/	.	16f\ 16b\JJ	.
48FF#/	.	.	.
48GG/JJJ	.	.	.
=153	=153	=153	=153
48GGG/LLL	4.ee/	16e\ 16b-\LL	.
48CC/	.	.	.
48GG/	.	.	.
48FFF#/	.	16e\ 16b-\	.
48CC/	.	.	.
48FF#/	.	.	.
48GGG/	.	16e\ 16b-\JJ	.
48CC/	.	.	.
48GG/JJJ	.	.	.
48GGG/LLL	.	16e\ 16b-\LL	.
48CC/	.	.	.
48GG/	.	.	.
48FFF#/	.	16e\ 16b-\	.
48CC/	.	.	.
48FF#/	.	.	.
48GGG/	.	16e\ 16b-\JJ	.
48CC/	.	.	.
48GG/JJJ	.	.	.
48FFFn/LLL	8.ff/	16f\ 16a\LL	.
48CC/	.	.	.
48FFn/	.	.	.
48FFF/	.	16a\ 16cc\	.
48CC/	.	.	.
48FF/	.	.	.
48FFF/	.	16a\ 16cc\JJ	.
48CC/	.	.	.
48FF/JJJ	.	.	.
=154	=154	=154	=154
48GGG/LLL	8.dd/L	16g\ 16cc\LL	.
48CC/	.	.	.
48DD/	.	.	.
48GG/	.	16g\ 16cc\	.
48C/	.	.	.
48D/	.	.	.
48G/	.	16g\ 16cc\JJ	.
48D/	.	.	.
48C/JJJ	.	.	.
48GG\LLL	8.dd/J	16g\ 16cc\LL	.
48C\	.	.	.
48D\	.	.	.
48G\	.	16g\ 16cc\	.
48D\	.	.	.
48C\	.	.	.
48GG\	.	16g\ 16cc\JJ	.
48G\	.	.	.
48c\JJJ	.	.	.
48GG\LLL	8dd/L	16g\ 16bn\LL	.
48G\	.	.	.
48B\	.	.	.
48AA\	.	16g\ 16cc\	.
48G\	.	.	.
48c\	.	.	.
48BB\	16gg/Jk	16g\ 16dd\JJ	.
48G\	.	.	.
48d\JJJ	.	.	.
=155	=155	=155	=155
48BB\LLL	(8gg/L	16dd\LL	>
48G\	.	.	.
48B\	.	.	.
48GG\	.	16b\	.
48G\	.	.	.
48d\	.	.	.
48C\	16ee/Jk)	16g\JJ	.
48G\	.	.	.
48c\JJJ	.	.	.
48C\LLL	8.ee/	16e\LL	p
48G\	.	.	.
48c\	.	.	.
48BB\	.	16d#\	.
48G\	.	.	.
48B\	.	.	.
48C\	.	16e\JJ	.
48G\	.	.	.
48c\JJJ	.	.	.
48GG#\LLL	8ee/L	16b\LL	>
48E\	.	.	.
48G#\	.	.	.
48EE\	.	16g#\	.
48E\	.	.	.
48B\	.	.	.
48AA\	16cc/Jk	16e\JJ	.
48E\	.	.	.
48A\JJJ	.	.	.
=156	=156	=156	=156
48AA\LLL	8.cc/	16e\LL	p
48E\	.	.	.
48A\	.	.	.
48GG#\	.	16e\	.
48E\	.	.	.
48G#\	.	.	.
48AA\	.	16e\JJ	.
48E\	.	.	.
48A\JJJ	.	.	.
48EE\LLL	(8ccc/L	16ggn\LL	>
48C\	.	.	.
48E\	.	.	.
48CC\	.	16ee\	.
48C\	.	.	.
48Gn\	.	.	.
48FF\	16aa/Jk)	16cc\JJ	.
48C\	.	.	.
48F\JJJ	.	.	.
48FF\LLL	8.aa/	16cc\LL	p
48C\	.	.	.
48F\	.	.	.
48EE\	.	16cc\ 16gg\	.
48AA\	.	.	.
48E\	.	.	.
48DD\	.	16dd\ 16ff\JJ	.
48AA\	.	.	.
48D\JJJ	.	.	.
=157	=157	=157	=157
48CC#/LLL	(8aa/L	16ee\LL	>
48AA/	.	.	.
48C#/	.	.	.
48AAA/	.	16cc#\	.
48AA/	.	.	.
48E/	.	.	.
48DD/	16ff/Jk)	16a\JJ	.
48AA/	.	.	.
48D/JJJ	.	.	.
48DD/LLL	8.dd/ 8.ff/L	16a\LL	p
48AA/	.	.	.
48D/	.	.	.
48CC#/	.	16a\	.
48AA/	.	.	.
48C#/	.	.	.
48DD/	.	16a\JJ	.
48AA/	.	.	.
48D/JJJ	.	.	.
48CCn/LLL	8.dd/ 8.ff/J	16a-\LL	.
48FF/	.	.	.
48Cn/	.	.	.
48BBB/	.	16a-\	.
48FF/	.	.	.
48BB/	.	.	.
48CC/	.	16a-\JJ	.
48FF/	.	.	.
48C/JJJ	.	.	.
=158	=158	=158	=158
48BBB/LLL	4.dd/ 4.ff/	16g\LL	.
48GG/	.	.	.
48BB/	.	.	.
48AAA#/	.	16g\	.
48GG/	.	.	.
48AA#/	.	.	.
48BBB/	.	16g\JJ	.
48GG/	.	.	.
48BB/JJJ	.	.	.
48BBB/LLL	.	16g\LL	.
48GG/	.	.	.
48BB/	.	.	.
48AAA#/	.	16g\	.
48GG/	.	.	.
48AA#/	.	.	.
48BBB/	.	16g\JJ	.
48GG/	.	.	.
48BB/JJJ	.	.	.
48GGG/LLL	8.ff/	16g\ 16b\LL	.
48FF#/	.	.	.
48GG/	.	.	.
48AAAn/	.	16g\ 16ccn\	.
48GG/	.	.	.
48AAn/	.	.	.
48BBB/	.	16g'\ 16dd'\JJ	.
48GG/	.	.	.
48BB/JJJ	.	.	.
=159	=159	=159	=159
48CC/LLL	8.ee/L	16g\LL	.
48GG/	.	.	.
48C/	.	.	.
48BBB/	.	16g\	.
48GG/	.	.	.
48BB/	.	.	.
48CC/	.	16g\JJ	.
48GG/	.	.	.
48C/JJJ	.	.	.
48CC/LLL	8.gg/J	16g\ 16b-\LL	.
48BB/	.	.	.
48C/	.	.	.
48DD/	.	16g\ 16b-\	.
48C/	.	.	.
48D/	.	.	.
48EE/	.	16g\ 16b-\JJ	.
48C/	.	.	.
48E/JJJ	.	.	.
48FF/LLL	16gg/LL	16a\LL	.
48C/	.	.	.
48F/	.	.	.
48FF/	16ff/	16a\	.
48C/	.	.	.
48F/	.	.	.
48FF#/	16cc/ 16dd/JJ	16a\JJ	.
48C/	.	.	.
48F#/JJJ	.	.	.
=160	=160	=160	=160
48GG\LLL	(8.cc/L	16e\ 16g\LL	.
48C\	.	.	.
48G\	.	.	.
48GG\	.	16e\ 16g\	.
48BB\	.	.	.
48G\	.	.	.
48GG\	.	16e\ 16g\JJ	.
48C\	.	.	.
48G\JJJ	.	.	.
48GG\LLL	8ee/	16f\ 16g\LL	.
48BB\	.	.	.
48G\	.	.	.
48GG\	.	16f\ 16g\	.
48C\	.	.	.
48G\	.	.	.
48GG\	16dd/Jk)	16f\ 16g\JJ	.
48BB\	.	.	.
48G\JJJ	.	.	.
8G\ (8g\L	8.r	48b\LLL	.
.	.	48dd\	>
.	.	48bb\	.
.	.	48b\	.
.	.	48dd\	.
.	.	48gg\	.
16E\ 16e\Jk)	.	48cc\	.
.	.	48gg\	.
.	.	48ccc\JJJ	.
*	*v	*v	*
=161	=161	=161
8.E\ 8.e\L	48cc\LLL	p
.	48gg\	.
.	48ccc\	.
.	48b\	.
.	48gg\	.
.	48bb\	.
.	48cc\	.
.	48gg\	.
.	48ccc\JJJ	.
8E\ (8e\	48gg#\LLL	.
.	48bb\	>
.	48ggg#\	.
.	48gg#\	.
.	48bb\	.
.	48eee\	.
16C\ 16c\Jk)	48aa\	.
.	48eee\	.
.	48aaa\JJJ	.
8.C\ 8.c\	48aa\LLL	p
.	48eee\	.
.	48aaa\	.
.	48gg#\	.
.	48eee\	.
.	48ggg#\	.
.	48aa\	.
.	48eee\	.
.	48aaa\JJJ	.
=162	=162	=162
*	*^	*
8C\ (8c\L	4.r	48ee\LLL	.
.	.	48ggn\	>
.	.	48eee\	.
.	.	48ee\	.
.	.	48gg\	.
.	.	48ccc\	.
16AA\ 16A\Jk)	.	48ff\	.
.	.	48ccc\	.
.	.	48fff\JJJ	.
8.AA\ 8.A\	.	48ff\LLL	p
.	.	48ccc\	.
.	.	48fff\	.
.	.	48ee\	.
.	.	48ccc\	.
.	.	48eee\	.
.	.	48ff\	.
.	.	48ccc\	.
.	.	48fff\JJJ	.
48C#\LLL	(8aaa/L	16eee\LL	>
48A\	.	.	.
48c#\	.	.	.
48AA\	.	16ccc#\	.
48A\	.	.	.
48e\	.	.	.
48D\	16fff/Jk)	16aa\JJ	.
48A\	.	.	.
48d\JJJ	.	.	.
=163	=163	=163	=163
48D\LLL	8.fff/L	16aa\LL	p
48A\	.	.	.
48d\	.	.	.
48C#\	.	16aa\	.
48A\	.	.	.
48c#\	.	.	.
48D\	.	16aa\JJ	.
48A\	.	.	.
48d\JJJ	.	.	.
48D\LLL	8.fff/	16aa\ 16ddd\LL	.
48A\	.	.	.
48d\	.	.	.
48C#\	.	16aa\ 16ddd\	.
48A\	.	.	.
48c#\	.	.	.
48D\	.	16aa\ 16ddd\JJ	.
48A\	.	.	.
48d\JJJ	.	.	.
48Cn\LLL	8.fff/J	16aa-\ 16ddd\LL	.
48F\	.	.	.
48cn\	.	.	.
48BB\	.	16aa-\ 16ddd\	.
48F\	.	.	.
48B\	.	.	.
48C\	.	16aa-\ 16ddd\JJ	.
48F\	.	.	.
48c\JJJ	.	.	.
=164	=164	=164	=164
48BB\LLL	4.fff/	16gg\ 16ddd\LL	.
48G\	.	.	.
48B\	.	.	.
48AA#\	.	16gg\ 16ddd\	.
48G\	.	.	.
48A#\	.	.	.
48BB\	.	16gg\ 16ddd\JJ	.
48G\	.	.	.
48B\JJJ	.	.	.
48BB\LLL	.	16gg\ 16ddd\LL	.
48G\	.	.	.
48B\	.	.	.
48AA#\	.	16gg\ 16ddd\	.
48G\	.	.	.
48A#\	.	.	.
48BB\	.	16gg\ 16ddd\JJ	.
48G\	.	.	.
48B\JJJ	.	.	.
48BB\LLL	8.fff/	16gg\ 16ddd\LL	.
48G\	.	.	.
48B\	.	.	.
48AA#\	.	16gg\ 16ddd\	.
48G\	.	.	.
48A#\	.	.	.
48BB\	.	16gg\ 16ddd\JJ	.
48G\	.	.	.
48B\JJJ	.	.	.
=165	=165	=165	=165
48AAn/LLL	4.fff#/	16cccn\ 16ddd\LL	.
48D/	.	.	.
48An/	.	.	.
48GG#/	.	16ccc\ 16ddd\	.
48D/	.	.	.
48G#/	.	.	.
48AA/	.	16ccc\ 16ddd\JJ	.
48D/	.	.	.
48A/JJJ	.	.	.
48AA/LLL	.	16ccc\ 16ddd\LL	.
48D/	.	.	.
48A/	.	.	.
48GG#/	.	16ccc\ 16ddd\	.
48D/	.	.	.
48G#/	.	.	.
48AA/	.	16ccc\ 16ddd\JJ	.
48D/	.	.	.
48A/JJJ	.	.	.
48AA/LLL	8.fff#/	16ccc\ 16ddd\LL	.
48D/	.	.	.
48A/	.	.	.
48GG#/	.	16ccc\ 16ddd\	.
48D/	.	.	.
48G#/	.	.	.
48AA/	.	16ccc\ 16ddd\JJ	.
48D/	.	.	.
48A/JJJ	.	.	.
=166	=166	=166	=166
48GGn/LLL	8.ggg/L	16ccc\ 16eee\LL	.
48C/	.	.	.
48Gn/	.	.	.
48GG/	.	16gg\ 16ccc\ 16eee\	.
48BB/	.	.	.
48G/	.	.	.
48GG/	.	16gg\ 16ccc\ 16eee\JJ	.
48C/	.	.	.
48G/JJJ	.	.	.
48GG/LLL	8.fffn/J	16gg\ 16bb\LL	.
48D/	.	.	.
48G/	.	.	.
48GG/	.	16gg\ 16bb\	.
48C#/	.	.	.
48G/	.	.	.
48GG/	.	16gg\ 16bb\JJ	.
48D/	.	.	.
48G/JJJ	.	.	.
48GG/LLL	8ggg/L	16gg\ 16bb\LL	.
48E/	.	.	.
48G/	.	.	.
48GG/	.	16gg\ 16bb\	.
48E/	.	.	.
48G/	.	.	.
48GG/	16aaa/Jk	16gg\ 16bb\JJ	.
48F/	.	.	.
48G/JJJ	.	.	.
=167	=167	=167	=167
48GG/LLL	[8.aaa/	16gg\ 16bb\LL	f
48F/	.	.	.
48G/	.	.	.
48GG/	.	16gg\ 16bb\	.
48E/	.	.	.
48G/	.	.	.
48GG/	.	16gg\ 16bb\JJ	.
48F/	.	.	.
48G/JJJ	.	.	.
48GG/LLL	4.r	16gg\ 16bb\ 16aaa\LL]	.
48F/	.	.	.
48G/	.	.	.
48GG/	.	16gg\ 16bb\ (16aaa\	.
48F/	.	.	.
48G/	.	.	.
48GG/	.	16gg\ 16ccc\ 16ggg\JJ)	.
48E/	.	.	.
48G/JJJ	.	.	.
48GG/LLL	.	16gg\ 16ccc\ (16ggg\LL	.
48E/	.	.	.
48G/	.	.	.
48GG/	.	16gg\ 16bb\ 16fff\)	.
48D/	.	.	.
48G/	.	.	.
48GG/	.	16gg\ 16ccc\ 16eee\JJ	.
48Cn/	.	.	.
48G/JJJ	.	.	.
=168	=168	=168	=168
48GG/LLL	8ccc/ 8eee/L	16gg\LL	.
48C/	.	.	.
48G/	.	.	.
48GG/	.	16gg\	.
48BB/	.	.	.
48G/	.	.	.
48GG/	16eee/ 16ggg/Jk	16gg\JJ	.
48C/	.	.	.
48G/JJJ	.	.	.
48GG/LLL	8fff#/L	16gg\ 16ddd#\LL	.
48AA/	.	.	.
48G/	.	.	.
48GG/	.	16gg\	.
48AA/	.	.	.
48G/	.	.	.
48GG/	16fffn/Jk	16gg\ 16dddn\JJ	.
48BB/	.	.	.
48G/JJJ	.	.	.
48GG/LLL	16eee/LL	16gg\ 16bb-\LL	.
48C#/	.	.	.
48G/	.	.	.
48GG/	16fff/	16gg\ 16bbn\	.
48BB/	.	.	.
48G/	.	.	.
64GG/L	16ddd/JJ	16gg\ 16bb\JJ	.
64BB/	.	.	.
64D/	.	.	.
64F/JJJJ	.	.	.
*	*v	*v	*
=169	=169	=169
64G\LLLL	8.ddd\	.
64B\	.	.
64d\	.	.
64f\JJJJ	.	.
16r	.	.
16r	.	.
8.r	[4.ggg\	.
8.r	.	.
=170	=170	=170
*	*^	*
8.r	4.r	4.ggg\]	.
8.r	.	.	.
*clefG2	*	*	*
48ee\LLL	[8.ggg/	(8cccn\L	pp
48ccn\	.	.	.
48ee\	.	.	.
48cc\	.	.	.
48ee\	.	.	.
48cc\	.	.	.
48ee\	.	16gg\Jk)	.
48cc\	.	.	.
48ee\JJJ	.	.	.
=171	=171	=171	=171
48cc\LLL	4.ggg/_	4.gg\	.
48ee\	.	.	.
48cc\	.	.	.
48ee\	.	.	.
48cc\	.	.	.
48ee\	.	.	.
48cc\	.	.	.
48ee\	.	.	.
48cc\JJJ	.	.	.
48ee\LLL	.	.	.
48cc#\	.	.	.
48ee\	.	.	.
48cc#\	.	.	.
48ee\	.	.	.
48cc#\	.	.	.
48ff\	.	.	.
48dd\	.	.	.
48ff\JJJ	.	.	.
48b\LLL	8.ggg/_	(8ddd\L	.
48ff\	.	.	.
48b\	.	.	.
48ff\	.	.	.
48b\	.	.	.
48ff\	.	.	.
48b\	.	16gg\Jk)	.
48ff\	.	.	.
48b\JJJ	.	.	.
=172	=172	=172	=172
48ff\LLL	4.ggg/_	4.gg\	.
48b\	.	.	.
48ff\	.	.	.
48b\	.	.	.
48ff\	.	.	.
48b\	.	.	.
48ff\	.	.	.
48b\	.	.	.
48ff\JJJ	.	.	.
48ccn\LLL	.	.	.
48ee\	.	.	.
48cc\	.	.	.
48ee\	.	.	.
48cc\	.	.	.
48ee\	.	.	.
48cc#\	.	.	.
48ee\	.	.	.
48cc#\JJJ	.	.	.
48ff\LLL	8.ggg/_	8.gg\	.
48dd\	.	.	.
48ff\	.	.	.
48dd#\	.	.	.
48ff#\	.	.	.
48dd#\	.	.	.
48ee\	.	.	.
48dd#\	.	.	.
48ee\JJJ	.	.	.
=173	=173	=173	=173
48e/LLL	4.ggg/_	8.gg\L	.
48ee/	.	.	.
48e/	.	.	.
48ee/	.	.	.
48e/	.	.	.
48ee/	.	.	.
48e/	.	.	.
48ee/	.	.	.
48e/JJJ	.	.	.
48ccn/LLL	.	8.eee\	.
48c/	.	.	.
48cc/	.	.	.
48c/	.	.	.
48cc/	.	.	.
48c/	.	.	.
48cc/	.	.	.
48c/	.	.	.
48cc/JJJ	.	.	.
48e/LLL	8.ggg/_	8.ccc\J	.
48ee/	.	.	.
48e/	.	.	.
48ee/	.	.	.
48e/	.	.	.
48ee/	.	.	.
48e/	.	.	.
48ee/	.	.	.
48e/JJJ	.	.	.
=174	=174	=174	=174
48ee/LLL	4.ggg/]	(8.ccc\L	.
48g/	.	.	.
48ee/	.	.	.
48g/	.	.	.
48ee/	.	.	.
48g/	.	.	.
48ee/	.	.	.
48g/	.	.	.
48ee/JJJ	.	.	.
48g/LLL	.	8.bb\J)	.
48dd/	.	.	.
48g/	.	.	.
48dd/	.	.	.
48g/	.	.	.
48dd/	.	.	.
48g/	.	.	.
48dd/	.	.	.
48g/JJJ	.	.	.
48dd/LLL	8.bb/	[8.gg\	.
48f/	.	.	.
48dd/	.	.	.
48f/	.	.	.
48dd/	.	.	.
48f/	.	.	.
48dd/	.	.	.
48f/	.	.	.
48dd/JJJ	.	.	.
=175	=175	=175	=175
48e/LLL	8.ccc/L	4.gg\_	.
48g/	.	.	.
48e/	.	.	.
48g/	.	.	.
48e/	.	.	.
48g/	.	.	.
48e/	.	.	.
48g/	.	.	.
48e/JJJ	.	.	.
48c/LLL	8.eee/	.	.
48e/	.	.	.
48c/	.	.	.
48e/	.	.	.
48c/	.	.	.
48e/	.	.	.
48c/	.	.	.
48e/	.	.	.
48c/JJJ	.	.	.
48B-/LLL	8.ggg/J	8.gg\_	.
48c/	.	.	.
48B-/	.	.	.
48c/	.	.	.
48B-/	.	.	.
48c/	.	.	.
48B-/	.	.	.
48c/	.	.	.
48B-/JJJ	.	.	.
=176	=176	=176	=176
48A/LLL	8.ggg/L	4.gg\]	.
48c/	.	.	.
48A/	.	.	.
48c/	.	.	.
48A/	.	.	.
48c/	.	.	.
48A/	.	.	.
48c/	.	.	.
48A/JJJ	.	.	.
48c/LLL	8.fff/J	.	.
48A/	.	.	.
48c/	.	.	.
48Bn/	.	.	.
48d/	.	.	.
48B/	.	.	.
48d/	.	.	.
48B/	.	.	.
48d/JJJ	.	.	.
48B/LLL	8ddd/L	[8.gg\	.
48f/	.	.	.
48B/	.	.	.
48f/	.	.	.
48B/	.	.	.
48f/	.	.	.
48e/	16ccc/Jk	.	.
48c/	.	.	.
48e/JJJ	.	.	.
=177	=177	=177	=177
48d/LLL	(8.bb/L	4.gg\_	.
48f/	.	.	.
48d/	.	.	.
48g/	.	.	.
48e/	.	.	.
48g/	.	.	.
48d/	.	.	.
48f/	.	.	.
48d/JJJ	.	.	.
48c/LLL	8.ccc/J	.	.
48e/	.	.	.
48c/	.	.	.
48f/	.	.	.
48d/	.	.	.
48f/	.	.	.
48c/	.	.	.
48e/	.	.	.
48c/JJJ	.	.	.
48B/LLL	8ddd/)	8.gg\]	.
48d/	.	.	.
48B/	.	.	.
48c/	.	.	.
48A/	.	.	.
48c/	.	.	.
48B/	16gg/	.	.
48d/	.	.	.
48B/JJJ	.	.	.
*clefF4	*	*	*
=178	=178	=178	=178
48C\LLL	[4.gg/	8.r	.
48e\	.	.	.
48c\	.	.	.
48e\	.	.	.
48c\	.	.	.
48e\	.	.	.
48c\	.	.	.
48e\	.	.	.
48c\JJJ	.	.	.
48C\LLL	.	8.r	.
48e\	.	.	.
48c\	.	.	.
48e\	.	.	.
48c\	.	.	.
48e\	.	.	.
48c\	.	.	.
48e\	.	.	.
48c\JJJ	.	.	.
48C\LLL	8.gg/_	(8dd\L	.
48f\	.	.	.
48c\	.	.	.
48f\	.	.	.
48c\	.	.	.
48f\	.	.	.
48c\	.	16g\Jk)	.
48f\	.	.	.
48c\JJJ	.	.	.
=179	=179	=179	=179
48C\LLL	8.gg/L_	[8.g\L	.
48e\	.	.	.
48c\	.	.	.
48e\	.	.	.
48c\	.	.	.
48e\	.	.	.
48c\	.	.	.
48e\	.	.	.
48c\JJJ	.	.	.
48C\LLL	8gg/J]	8g\J]	.
48E\	.	.	.
48C\	.	.	.
48E\	.	.	.
48C\	.	.	.
48E\	.	.	.
48C\	16ccc/	[16gg\	.
48E\	.	.	.
48C\JJJ	.	.	.
48CC/LLL	16ccc#/LL	8.gg\]	.
48F/	.	.	.
48C/	.	.	.
48F/	16ddd/	.	>
48C/	.	.	.
48F/	.	.	.
48C/	16gg/JJ	.	.
48F/	.	.	.
48C/JJJ	.	.	.
=180	=180	=180	=180
48CC/LLL	[4.gg/	8.r	.
48E/	.	.	.
48C/	.	.	.
48E/	.	.	.
48C/	.	.	.
48E/	.	.	.
48C/	.	.	.
48E/	.	.	.
48C/JJJ	.	.	.
48CC/LLL	.	16r	.
48E/	.	.	.
48C/	.	.	.
48E/	.	16r	.
48C/	.	.	.
48E/	.	.	.
48C/	.	(16cc\	.
48E/	.	.	.
48C/JJJ	.	.	.
48CC/LLL	8.gg/]	16cc#\LL	.
48F/	.	.	.
48C/	.	.	.
48F/	.	16dd\)	>
48C/	.	.	.
48F/	.	.	.
48C/	.	16g\JJ	.
48F/	.	.	.
48C/JJJ	.	.	.
*clefG2	*	*	*
*	*v	*v	*
=181	=181	=181
8.r	48gg\LLL	pp
.	48aa\	.
.	48gg\	.
.	48ff#\	.
.	48gg\	.
.	48aa\	.
.	48bb\	.
.	48ccc\	.
.	48aa\JJJ	.
48gg\LLL	48bb\LLL	.
48aa\	48ccc\	.
48gg\	48bb\	.
48ff#\	48aa\	.
48gg\	48bb\	.
48aa\	48ccc\	.
48bb\	48ddd\	.
48ccc\	48eee\	.
48aa\JJJ	48ccc\JJJ	.
48bb\LLL	48ddd\LLL	.
48ccc\	48eee\	.
48bb\	48ddd\	.
48aa#\	48ccc#\	.
48bb\	48ddd\	.
48ccc\	48eee\	.
48ddd\	48fffn\	.
48eee\	48ggg\	.
48ccc#\JJJ	48eee\JJJ	.
=182	=182	=182
48ddd\LLL	48fff\LLL	.
48eee\	48ggg\	.
48ddd\	48fff\	.
48cccn\	48eee\	.
48ddd\	48fff\	.
48ccc\	48eee\	.
48bb\	48ddd\	.
48ccc\	48eee\	.
48bb\JJJ	48ddd\JJJ	.
48aan\LLL	48cccn\LLL	.
48bb\	48ddd\	.
48aa\	48ccc\	.
48gg\	48bb\	.
48aa\	48ccc\	.
48gg\	48bb\	.
48aa\	48ccc\	.
48bb\	48ddd\	.
48aa\JJJ	48ccc\JJJ	.
48bb\LLL	48ddd\LLL	.
48ccc\	48eee\	.
48bb\	48ddd\	.
48ccc\	48eee\	.
48ddd\	48fff\	.
48eee\	48ggg\	.
48fff\	48aaa\	.
48eee\	48ggg\	.
48ddd\JJJ	48bbb\JJJ	.
=183	=183	=183
48eee\LLL	48cccc\LLL	.
48ddd\	48bbb\	.
48ccc\	48aaa\	.
48bb\	48ggg\	.
48aa\	48fff\	.
48gg\	48eee\	.
48ff\	48ddd\	.
48ee\	48ccc\	.
48dd\JJJ	48bb\JJJ	.
48ee\LLL	48ccc\LLL	.
48dd\	48bb\	.
48cc\	48aa\	.
48b\	48gg\	.
48a\	48ff\	.
48g\	48ee\	.
48f\	48dd\	.
48e\	48cc\	.
48d\JJJ	48b\JJJ	.
*clefF4	*	*
48e\LLL	48cc/LLL	.
48d\	48b/	.
48c\	48a/	.
48B\	48g/	.
48A\	48f/	.
48G\	48e/	.
48F\	48d/	.
48E\	48c/	.
48D\JJJ	48B/JJJ	.
=184	=184	=184
8.r	(8c/L	f
.	16G/Jk)	.
(8CC/L	8.G/	f
16GGG/Jk)	.	.
[8.GGG/	(8ff\L	.
.	16b\Jk)	.
=185	=185	=185
8.GGG/_	(8fff\L	.
.	16bb\Jk)	.
16GGG/LL]	8dd\ 8ff\ (8ddd\L	p
(16GGG/ 16GG/	.	.
16CC/) 16C/JJ	16cc\ 16ee\ 16ccc\Jk)	.
16r	8cc\ 8ee\ 8ccc\	.
16GG\ (16G\LL	.	.
16C\ 16c\JJ)	16r	.
=186	=186	=186
16r	8cc\ 8ee\ 8ccc\	pp
(16GGG/ 16GG/LL	.	.
*	*clefF4	*clefF4
16CC/) 16C/JJ	16r	.
8CC/ 8C/	8E\ 8G\ 8c\	.
16r	16r	.
8.r	8.r	.
==	==	==
*-	*-	*-
!!!ENC: Craig Stuart Sapp
!!!END: 2008/11/04/
!!!EEV: 2014/07/13/ (added ottavas)
